!!!!SEGMENT: pl-cz--iii-564--001-003_raszek-waclaw--missa-pastoralis-d-credo.krn
!!!cenid: 18xx:987
!!!COM: Raszek, Wacław
!!!COM-rismID: pe30020314
!!!CDT: <1848->1848
!!!CNT:
!!!OPR: Missa Pastoralis D
!!!OTL: Credo
!!!OMV: 003
!!!PDT:
!!!AGN: Sacred; Mass
!!!SMS-siglum: PL-CZ
!!!SMS-shelfmark: III-564
!!!SMS-shelfwork: 001-003 M
!!!SMS-variant:
!!!SMS-altvar:
!!!NIFC-rismSourceID: 300001047
!!!NIFC-rismChildID: 300001047
!!!NIFC-islandoraID: pl-cz:39183
!!!URL-pdf-islandora: https://repozytorium.nifc.pl/islandora/object/pl-cz%3A39183/datastream/PDF/view
!!!URL-scan:
!!!ONB-nifc: UWAGA: części Mszy: Kyrie, Gloria, Credo, Et incarnatus, Et resurrexit, Sanctus, Benedictus, Agnus Dei, Dona nobis
!!!AIN: 1 alto 1 bass 2 clars 1 clrno 2 cor 2 flt 2 oboe 1 organ 1 soprn 1 tenor 2 violn
!!!OMD:
!!!OMD-mod: Allegro moderato
!!!key: D
**kern	**fba	**dynam	**kern	**dynam	**kern	**dynam	**kern	**text	**mod-text	**dynam	**mod-dynam	**kern	**kern	**text	**mod-text	**dynam	**mod-dynam	**kern	**text	**mod-text	**dynam	**mod-dynam	**kern	**kern	**dynam	**kern	**dynam	**kern	**dynam	**kern	**dynam	**kern	**dynam	**kern	**dynam
*part14	*part14	*part14	*part13	*part13	*part12	*part12	*part11	*part11	*part11	*part11	*part11	*part10	*part9	*part9	*part9	*part9	*part9	*part8	*part8	*part8	*part8	*part8	*part7	*part6	*part6	*part5	*part5	*part4	*part4	*part3	*part3	*part2	*part2	*part1	*part1
*group5	*	*	*group4	*	*group4	*	*group3	*group3	*group3	*	*	*group3	*group3	*group3	*group3	*	*	*group3	*group3	*group3	*	*	*group2	*group2	*	*group2	*	*group1	*	*group1	*	*group1	*	*group1	*
*staff14	*	*	*staff13	*	*staff12	*	*staff11	*staff11	*staff11	*	*	*staff10	*staff9	*staff9	*staff9	*	*	*staff8	*staff8	*staff8	*	*	*staff7	*staff6	*	*staff5	*	*staff4	*	*staff3	*	*staff2	*	*staff1	*
*I"Organo.	*	*	*I"Violino 2do.	*	*I"Violino Primo.	*	*I"Baſso.	*	*	*	*	*I"[Tenore]	*I"Alto.	*	*	*	*	*I"Canto.	*	*	*	*	*I"[Clarino]	*I"Cornu 2.do	*	*I"Cornu 1.mo	*	*I"Clarinetto vel Oboe 2do	*	*I"Clarinetto vel Oboe 1mo	*	*I"Flauto 2.do	*	*I"Flauto 1.mo	*
*mI"Organo	*	*	*mI"Violino II	*	*mI"Violino I	*	*mI"Basso	*	*	*	*	*mI"Tenore	*mI"Alto	*	*	*	*	*mI"Soprano	*	*	*	*	*mI"Clarino	*mI"Corno II in D	*	*mI"Corno I in D	*	*mI"Clarinetto vel Oboe II	*	*mI"Clarinetto vel Oboe I	*	*mI"Flauto II	*	*mI"Flauto I	*
*I'org	*	*	*I'vl II	*	*I'vl I	*	*I'B	*	*	*	*	*I'T	*I'A	*	*	*	*	*I'S	*	*	*	*	*I'clno	*I'cor II in D	*	*I'cor I in D	*	*I'cl vel ob II	*	*I'cl vel ob I	*	*I'fl II	*	*I'fl I	*
*ICklav	*	*	*ICstr	*	*ICstr	*	*ICvox	*	*	*	*	*ICvox	*ICvox	*	*	*	*	*ICvox	*	*	*	*	*ICbras	*ICbras	*	*ICbras	*	*ICww	*	*ICww	*	*ICww	*	*ICww	*
*Iorgan	*	*	*Ivioln	*	*Ivioln	*	*Ibass	*	*	*	*	*Itenor	*Ialto	*	*	*	*	*Isoprn	*	*	*	*	*Iclrno	*Icor	*	*Icor	*	*Iclars|Ioboe	*	*Iclars|Ioboe	*	*Iflt	*	*Iflt	*
*IGcont	*	*	*	*	*	*	*	*	*	*	*	*	*	*	*	*	*	*	*	*	*	*	*	*	*	*	*	*	*	*	*	*	*	*	*
*clefF4	*	*	*clefG2	*	*clefG2	*	*clefF4	*	*	*	*	*clefC4	*clefC3	*	*	*	*	*clefC1	*	*	*	*	*clefG2	*clefG2	*	*clefG2	*	*clefG2	*	*clefG2	*	*clefG2	*	*clefG2	*
*	*	*	*	*	*	*	*	*	*	*	*	*mclefGv2	*mclefG2	*	*	*	*	*mclefG2	*	*	*	*	*	*	*	*	*	*	*	*	*	*	*	*	*
*D:	*	*	*D:	*	*D:	*	*D:	*	*	*	*	*D:	*D:	*	*	*	*	*D:	*	*	*	*	*D:	*D:	*	*D:	*	*D:	*	*D:	*	*D:	*	*D:	*
*	*	*	*	*	*	*	*	*	*	*	*	*	*	*	*	*	*	*	*	*	*	*	*	*ITrd6c10	*	*ITrd6c10	*	*	*	*	*	*	*	*	*
*k[f#c#]	*	*	*k[f#c#]	*	*k[f#c#]	*	*k[f#c#]	*	*	*	*	*k[f#c#	*k[c#f#]	*	*	*	*	*k[f#c#]	*	*	*	*	*k[f#c#]	*k[f#c#]	*	*k[f#c#]	*	*k[f#c#]	*	*k[f#c#]	*	*k[f#c#]	*	*k[f#c#]	*
*	*	*	*	*	*	*	*	*	*	*	*	*	*mk[f#c#]	*	*	*	*	*	*	*	*	*	*	*	*	*	*	*	*	*	*	*	*	*	*
*M3/4	*	*	*M3/4	*	*M3/4	*	*M3/4	*	*	*	*	*M3/4	*M3/4	*	*	*	*	*M3/4	*	*	*	*	*M3/4	*M3/4	*	*M3/4	*	*M3/4	*	*M3/4	*	*M3/4	*	*M3/4	*
*	*	*	*	*	*	*	*	*	*	*	*	*	*	*	*	*	*	*	*	*	*	*	*	*	*	*	*	*	*	*	*	*	*	*8va	*
=1	=1	=1	=1	=1	=1	=1	=1	=1	=1	=1	=1	=1	=1	=1	=1	=1	=1	=1	=1	=1	=1	=1	=1	=1	=1	=1	=1	=1	=1	=1	=1	=1	=1	=1	=1
*	*	*	*	*	*	*	*	*	*	*	*	*	*	*	*	*	*	*	*	*	*	*	*	*	*	*	*	*	*	*	*	*	*	*2\right	*
!!LO:TX:a:t= :mod=Tutti
!!LO:TX:t=P:problem:all\right
!	!	!	!	!	!	!	!	!	!	!	!	!	!	!	!	!	!	!	!	!	!	!	!	!	!	!	!	!	!LO:MO:null:mod=!LO&colon;DY&colon;ed=brack	!	!LO:MO:null:mod=!LO&colon;DY&colon;ed=brack	!	!	!	!
!LO:TX:a:t=Tutti:mod=	!	!	!	!	!	!	!LO:TX:a:B:t=Mod.:mod=	!	!	!	!	!	!LO:TX:t=P:problem=kolejność znaków c# f#	!	!	!	!	!	!	!	!	!	!	!	!	!	!	!	!	!	!	!	!	!	!
!LO:TX:a:B:t=mod&colon;:mod=	!	!	!LO:TX:a:B:t=Allo moder.:mod=	!LO:DY:a:t=ffor&colon;	!LO:TX:a:B:t=Allo mod&colon;:mod=	!LO:DY:a:t=ffor&colon;	!LO:TX:a:t=T.:mod=	!	!	!	!	!LO:TX:t=P:problem:zgodnie z RISM:T, clno missing	!	!	!	!	!	!LO:TX:t=P:problem:przy kluczu cc# zmiast c#	!	!	!	!	!LO:TX:t=P:problem:zgodnie z RISM:T, clno missing	!LO:TX:a:B:t=Mod&colon;:mod=	!LO:DY:a:t=ff.	!LO:TX:a:B:t=Mod.:mod=	!LO:DY:a:rj:t=ff.	!LO:TX:a:B:t=Allo:mod=	!LO:MO:null:mod=ff	!LO:TX:a:B:t=mod&colon;:mod=	!LO:MO:null:mod=ff	!LO:TX:a:B:t=Mod.:mod=	!LO:DY:a:t=ff.	!LO:TX:a:B:t=allo mod&colon;:mod=	!LO:DY:a:rj
4D\	.	.	4a 4f#/	ff	8dd\L	ff	4D\	Cre-	Cre-	.	.	2.ryy	4f#\	Cre-	Cre-	.	.	4dd\	Cre-	Cre-	.	.	2.ryy	4F#/	ff	4d\	ff	4f#/	.	4dd\	.	4ff#\	ff	4ddd\	ff
.	.	.	.	.	8cc#\J	.	.	.	.	.	.	.	.	.	.	.	.	.	.	.	.	.	.	.	.	.	.	.	.	.	.	.	.	.	.
4D\	.	.	4a 4f#/	.	4dd\	.	4D\	-do	-do	.	.	.	4f#\	-do	-do	.	.	4dd\	-do	-do	.	.	.	4F#/	.	4d\	.	4f#/	.	4dd\	.	4ff#\	.	4ddd\	.
4C#/	6	.	4a 4e/	.	4ee\	.	4C#/	in	in	.	.	.	4e\	in	in	.	.	4ee\	in	in	.	.	.	4A/	.	4e\	.	4a/	.	4ee\	.	4ee\	.	4eee\	.
=2	=2	=2	=2	=2	=2	=2	=2	=2	=2	=2	=2	=2	=2	=2	=2	=2	=2	=2	=2	=2	=2	=2	=2	=2	=2	=2	=2	=2	=2	=2	=2	=2	=2	=2	=2
*	*	*	*	*	*2\right	*	*	*	*	*	*	*	*2\right	*	*	*	*	*2\right	*	*	*	*	*	*2\right	*	*2\right	*	*2\right	*	*2\right	*	*2\right	*	*	*
4D\	.	.	4a 4f#/	.	2ff#\	.	2D/	U-	u-	.	.	2.ryy	2f#\	U-	u-	.	.	2ff#\	U-	u-	.	.	2.ryy	2d\	.	2f#\	.	2a/	.	2ff#\	.	2ff#\	.	2fff#\	.
4d\	.	.	4a 4f#/	.	.	.	.	.	.	.	.	.	.	.	.	.	.	.	.	.	.	.	.	.	.	.	.	.	.	.	.	.	.	.	.
4c#\	3	.	4a 4e/	.	4ee\	.	4C#/	-num	-num	.	.	.	4e\	-num	-num	.	.	4ee\	-num	-num	.	.	.	4A/	.	4e\	.	4a/	.	4ee\	.	4ee\	.	4eee\	.
=3	=3	=3	=3	=3	=3	=3	=3	=3	=3	=3	=3	=3	=3	=3	=3	=3	=3	=3	=3	=3	=3	=3	=3	=3	=3	=3	=3	=3	=3	=3	=3	=3	=3	=3	=3
!	!	!	!	!	!	!	!	!	!	!	!	!	!LO:SIC:s=(4f#\	!	!	!	!	!LO:SIC:s=(8ff#\L	!	!	!	!	!	!	!	!	!	!	!	!	!	!	!	!	!
8d\L	.	.	4a 4f#/	.	8ff#\L	.	(4D\	De-	De-	.	.	2.ryy	4f#\	De-	De-	.	.	8ff#\L	De-	De-	.	.	2.ryy	4d\	.	4f#\	.	4a/	.	4ff#\	.	4ff#\	.	8fff#\L	.
8B\J	.	.	.	.	8dd\J	.	.	.	.	.	.	.	.	.	.	.	.	8dd\J	.	.	.	.	.	.	.	.	.	.	.	.	.	.	.	8ddd\J	.
4G\	6	.	4g/	.	4ee\	.	4G\	.	.	.	.	.	4g\	.	.	.	.	4ee\	.	.	.	.	.	4r	.	4e\	.	4g/	.	4ee\	.	4gg\	.	4eee\	.
!	!	!	!	!	!	!	!	!	!	!	!	!	!LO:SIC:s=4e\)	!	!	!	!	!	!	!	!	!	!	!	!	!	!	!	!	!	!	!	!	!	!
4A\	3	.	4e/	.	8ee\L	.	4A\)	.	.	.	.	.	4e\	.	.	.	.	8ee\L	.	.	.	.	.	4A/	.	4e\	.	4g/	.	4ee\	.	4ee\	.	8eee\L	.
!	!	!	!	!	!	!	!	!	!	!	!	!	!	!	!	!	!	!LO:SIC:s=8cc#\J)	!	!	!	!	!	!	!	!	!	!	!	!	!	!	!	!	!
.	.	.	.	.	8cc#\J	.	.	.	.	.	.	.	.	.	.	.	.	8cc#\J	.	.	.	.	.	.	.	.	.	.	.	.	.	.	.	8ccc#\J	.
=4	=4	=4	=4	=4	=4	=4	=4	=4	=4	=4	=4	=4	=4	=4	=4	=4	=4	=4	=4	=4	=4	=4	=4	=4	=4	=4	=4	=4	=4	=4	=4	=4	=4	=4	=4
*	*	*	*	*	*	*	*2\right	*	*	*	*	*	*	*	*	*	*	*	*	*	*	*	*	*	*	*	*	*	*	*	*	*	*	*	*
4D/	.	.	4f#/	.	2.dd\	.	2.D\	-um	-um,	.	.	2.ryy	2.f#\	-um	-um,	.	.	2.dd\	-um	-um,	.	.	2.ryy	4F#/	.	4d\	.	2.f#/	.	2.dd\	.	4ff#\	.	4ddd\	.
8AA/L	.	.	4r	.	.	.	.	.	.	.	.	.	.	.	.	.	.	.	.	.	.	.	.	8A/L	.	8a\L	.	.	.	.	.	8aa\L	.	8aa/L	.
8FF#/J	.	.	.	.	.	.	.	.	.	.	.	.	.	.	.	.	.	.	.	.	.	.	.	8F#/J	.	8f#\J	.	.	.	.	.	8ff#\J	.	8ff#/J	.
4DD/	.	.	4r	.	.	.	.	.	.	.	.	.	.	.	.	.	.	.	.	.	.	.	.	4D/	.	4d\	.	.	.	.	.	4dd\	.	4dd/	.
=5	=5	=5	=5	=5	=5	=5	=5	=5	=5	=5	=5	=5	=5	=5	=5	=5	=5	=5	=5	=5	=5	=5	=5	=5	=5	=5	=5	=5	=5	=5	=5	=5	=5	=5	=5
4D\	.	.	4a 4f#/	.	8dd\L	.	4D/	Pa-	Pa-	.	.	2.ryy	4f#\	Pa-	Pa-	.	.	4dd\	Pa-	Pa-	.	.	2.ryy	4F#/	.	4d\	.	4f#/	.	4dd\	.	4ff#\	.	4ddd\	.
.	.	.	.	.	8cc#\J	.	.	.	.	.	.	.	.	.	.	.	.	.	.	.	.	.	.	.	.	.	.	.	.	.	.	.	.	.	.
4D\	.	.	4a 4f#/	.	4dd\	.	4D/	-trem	-trem	.	.	.	4f#\	-trem	-trem	.	.	4dd\	-trem	-trem	.	.	.	4F#/	.	4d\	.	4f#/	.	4dd\	.	4ff#\	.	4ddd\	.
4C#\	3	.	4a 4e/	.	4ee\	.	4C#/	om-	om-	.	.	.	4e\	om-	om-	.	.	4ee\	om-	om-	.	.	.	4A/	.	4e\	.	4a/	.	4ee\	.	4ee\	.	4eee\	.
=6	=6	=6	=6	=6	=6	=6	=6	=6	=6	=6	=6	=6	=6	=6	=6	=6	=6	=6	=6	=6	=6	=6	=6	=6	=6	=6	=6	=6	=6	=6	=6	=6	=6	=6	=6
4D/	.	.	4a 4f#/	.	2ff#\	.	2D/	-ni-	-ni-	.	.	2.ryy	2f#\	-ni-	-ni-	.	.	2ff#\	-ni-	-ni-	.	.	2.ryy	2d\	.	2f#\	.	2a/	.	2ff#\	.	2ff#\	.	2fff#\	.
4d\	.	.	4a 4f#/	.	.	.	.	.	.	.	.	.	.	.	.	.	.	.	.	.	.	.	.	.	.	.	.	.	.	.	.	.	.	.	.
4c#\	3	.	4a 4e/	.	4ee\	.	4C#/	-po-	-po-	.	.	.	4e\	-po-	-po-	.	.	4ee\	-po-	-po-	.	.	.	4A/	.	4e\	.	4a/	.	4ee\	.	4ee\	.	4eee\	.
=7	=7	=7	=7	=7	=7	=7	=7	=7	=7	=7	=7	=7	=7	=7	=7	=7	=7	=7	=7	=7	=7	=7	=7	=7	=7	=7	=7	=7	=7	=7	=7	=7	=7	=7	=7
!	!	!	!	!	!	!	!LO:SIC:s=(4D\	!	!	!	!	!	!	!	!	!	!	!LO:SIC:s=(8ff#\L	!	!	!	!	!	!	!	!	!	!	!	!	!	!	!	!	!
4d\	.	.	4a 4f#/	.	8ff#\L	.	4D\	-ten-	-ten-	.	.	2.ryy	(4f#\	-ten-	-ten-	.	.	8ff#\L	-ten-	-ten-	.	.	2.ryy	4d\	.	4f#\	.	4a/	.	4ff#\	.	4ff#\	.	8fff#\L	.
.	.	.	.	.	8dd\J	.	.	.	.	.	.	.	.	.	.	.	.	8dd\J	.	.	.	.	.	.	.	.	.	.	.	.	.	.	.	8ddd\J	.
!	!	!	!	!	!	!	!	!	!	!	!	!	!LO:SIC:s=4g\	!	!	!	!	!	!	!	!	!	!	!	!	!	!	!	!	!	!	!	!	!	!
4G\	6	.	4g/	.	4ee\	.	4G\	.	.	.	.	.	4g\)	.	.	.	.	4ee\	.	.	.	.	.	4r	.	4e\	.	4g/	.	4ee\	.	4gg\	.	4eee\	.
!	!	!	!	!	!	!	!LO:SIC:s=4A\)	!	!	!	!	!	!LO:SIC:s=4e\)	!	!	!	!	!	!	!	!	!	!	!	!	!	!	!	!	!	!	!	!	!	!
4A\	7	.	4e/	.	8ee\L	.	4A\	.	.	.	.	.	4e\	.	.	.	.	8ee\L	.	.	.	.	.	4A/	.	4e\	.	4g/	.	4ee\	.	4ee\	.	8eee\L	.
!	!	!	!	!	!	!	!	!	!	!	!	!	!	!	!	!	!	!LO:SIC:s=8cc#\J)	!	!	!	!	!	!	!	!	!	!	!	!	!	!	!	!	!
.	.	.	.	.	8cc#\J	.	.	.	.	.	.	.	.	.	.	.	.	8cc#\J	.	.	.	.	.	.	.	.	.	.	.	.	.	.	.	8ccc#\J	.
=8	=8	=8	=8	=8	=8	=8	=8	=8	=8	=8	=8	=8	=8	=8	=8	=8	=8	=8	=8	=8	=8	=8	=8	=8	=8	=8	=8	=8	=8	=8	=8	=8	=8	=8	=8
4D/	.	.	2.a 2.f#/	.	2.dd\	.	2.D\	-tem	-tem,	.	.	2.ryy	2.f#\	-tem	-tem,	.	.	2.dd\	-tem	-tem,	.	.	2.ryy	2F#/	.	2d\	.	2.f#/	.	2.dd\	.	2.ff#\	.	2.ddd\	.
8AA/L	.	.	.	.	.	.	.	.	.	.	.	.	.	.	.	.	.	.	.	.	.	.	.	.	.	.	.	.	.	.	.	.	.	.	.
8FF#/J	.	.	.	.	.	.	.	.	.	.	.	.	.	.	.	.	.	.	.	.	.	.	.	.	.	.	.	.	.	.	.	.	.	.	.
4DD/	.	.	.	.	.	.	.	.	.	.	.	.	.	.	.	.	.	.	.	.	.	.	.	4r	.	4r	.	.	.	.	.	.	.	.	.
=9	=9	=9	=9	=9	=9	=9	=9	=9	=9	=9	=9	=9	=9	=9	=9	=9	=9	=9	=9	=9	=9	=9	=9	=9	=9	=9	=9	=9	=9	=9	=9	=9	=9	=9	=9
2.D\	.	.	8f#/L	.	8ff#\L	.	2.D\	fa-	fa-	.	.	2.ryy	2.f#\	fa-	fa-	.	.	2.a\	fa-	fa-	.	.	2.ryy	2.d\	.	2.f#\	.	2.a/	.	2.ff#\	.	2.ff#\	.	2.ddd\	.
.	.	.	8g#X/	.	8gg#X\	.	.	.	.	.	.	.	.	.	.	.	.	.	.	.	.	.	.	.	.	.	.	.	.	.	.	.	.	.	.
.	.	.	8a/	.	8aa\	.	.	.	.	.	.	.	.	.	.	.	.	.	.	.	.	.	.	.	.	.	.	.	.	.	.	.	.	.	.
.	.	.	8g#/J	.	8gg#\J	.	.	.	.	.	.	.	.	.	.	.	.	.	.	.	.	.	.	.	.	.	.	.	.	.	.	.	.	.	.
.	.	.	4a/	.	4aa\	.	.	.	.	.	.	.	.	.	.	.	.	.	.	.	.	.	.	.	.	.	.	.	.	.	.	.	.	.	.
!	!	!	!	!	!	!	!	!	!	!	!	!	!	!	!	!	!	!	!	!	!	!	!	!	!	!	!	!	!	!LO:LB:g=original	!	!	!	!	!
=10	=10	=10	=10	=10	=10	=10	=10	=10	=10	=10	=10	=10	=10	=10	=10	=10	=10	=10	=10	=10	=10	=10	=10	=10	=10	=10	=10	=10	=10	=10	=10	=10	=10	=10	=10
!	!	!	!	!	!	!	!	!	!	!	!	!	!	!	!	!	!	!	!	!	!	!	!	!	!	!	!	!	!	!LO:TX:t=P:problem=takty nr 10-11 nieczytelne	!	!	!	!	!
2.A 2.AA/	.	.	8f#/L	.	8ff#\L	.	2A\	-cto-	-cto-	.	.	2.ryy	2a\	-cto-	-cto-	.	.	2a\	-cto-	-cto-	.	.	2.ryy	2A/	.	2e\	.	2.a/	.	2.ryy	.	2.aa\	.	8fff#\L	.
.	.	.	8d/	.	8dd\	.	.	.	.	.	.	.	.	.	.	.	.	.	.	.	.	.	.	.	.	.	.	.	.	.	.	.	.	8ddd\	.
.	.	.	8e/	.	8ee\	.	.	.	.	.	.	.	.	.	.	.	.	.	.	.	.	.	.	.	.	.	.	.	.	.	.	.	.	8eee\	.
.	.	.	8c#/J	.	8cc#\J	.	.	.	.	.	.	.	.	.	.	.	.	.	.	.	.	.	.	.	.	.	.	.	.	.	.	.	.	8ccc#\J	.
.	.	.	4A/	.	4a/	.	4A\	-rem	-rem	.	.	.	4a\	-rem	-rem	.	.	4a\	-rem	-rem	.	.	.	4A/	.	4e\	.	.	.	.	.	.	.	4aa/	.
!	!	!	!	!	!LO:LB:g=original	!	!	!	!	!	!	!	!	!	!	!	!	!	!	!	!	!	!	!	!	!	!	!	!	!	!	!	!	!LO:LB:g=original	!
=11	=11	=11	=11	=11	=11	=11	=11	=11	=11	=11	=11	=11	=11	=11	=11	=11	=11	=11	=11	=11	=11	=11	=11	=11	=11	=11	=11	=11	=11	=11	=11	=11	=11	=11	=11
2.D 2.DD/	.	.	8f#/L	.	8ff#\L	.	4D\	Cae-	cae-	.	.	2.ryy	4f#\	Cae-	cae-	.	.	4a\	Cae-	cae-	.	.	2.ryy	2.d\	.	2.f#\	.	2.a/	.	2.ryy	.	2.ff#\	.	2.ddd\	.
!	!	!	!LO:SIC:v:s=8g#/	!	!	!	!	!	!	!	!	!	!	!	!	!	!	!	!	!	!	!	!	!	!	!	!	!	!	!	!	!	!	!	!
.	.	.	8g/	.	8gg#X\	.	.	.	.	.	.	.	.	.	.	.	.	.	.	.	.	.	.	.	.	.	.	.	.	.	.	.	.	.	.
.	.	.	8a/	.	8aa\	.	4D\	-li	-li	.	.	.	4f#\	-li	-li	.	.	4a\	-li	-li	.	.	.	.	.	.	.	.	.	.	.	.	.	.	.
!	!	!	!LO:SIC:v:s=8g#/J	!	!	!	!	!	!	!	!	!	!	!	!	!	!	!	!	!	!	!	!	!	!	!	!	!	!	!	!	!	!	!	!
.	.	.	8g/J	.	8gg#\J	.	.	.	.	.	.	.	.	.	.	.	.	.	.	.	.	.	.	.	.	.	.	.	.	.	.	.	.	.	.
!	!	!	!	!	!	!	!	!	!	!	!	!	!	!	!	!	!	!LO:SIC:v:s=4a\	!	!	!	!	!	!	!	!	!	!	!	!	!	!	!	!	!
.	.	.	4a/	.	4aa\	.	4D\	et	et	.	.	.	4f#\	et	et	.	.	4g\	et	et	.	.	.	.	.	.	.	.	.	.	.	.	.	.	.
!LO:LB:g=original	!	!	!LO:LB:g=original	!	!	!	!	!	!	!	!	!	!	!	!	!	!	!LO:PB:g=original	!	!	!	!	!	!	!	!LO:LB:g=original	!	!	!	!	!	!LO:LB:g=original	!	!	!
=12	=12	=12	=12	=12	=12	=12	=12	=12	=12	=12	=12	=12	=12	=12	=12	=12	=12	=12	=12	=12	=12	=12	=12	=12	=12	=12	=12	=12	=12	=12	=12	=12	=12	=12	=12
2.A 2.AA/	.	.	8f#/L	.	8ff#\L	.	2A\	ter-	ter-	.	.	2.ryy	2a\	ter-	ter-	.	.	2a\	ter-	ter-	.	.	2.ryy	2A/	.	2e\	.	2.a/	.	2.aa\	.	2.aa\	.	8fff#\L	.
.	.	.	8d/	.	8dd\	.	.	.	.	.	.	.	.	.	.	.	.	.	.	.	.	.	.	.	.	.	.	.	.	.	.	.	.	8ddd\	.
.	.	.	8e/	.	8ee\	.	.	.	.	.	.	.	.	.	.	.	.	.	.	.	.	.	.	.	.	.	.	.	.	.	.	.	.	8eee\	.
.	.	.	8c#/J	.	8cc#\J	.	.	.	.	.	.	.	.	.	.	.	.	.	.	.	.	.	.	.	.	.	.	.	.	.	.	.	.	8ccc#\J	.
!	!	!	!	!	!	!	!	!	!	!	!	!	!	!	!	!	!	!	!	!	!	!	!	!LO:LB:g=original	!	!	!	!	!	!	!	!	!	!	!
.	.	.	4A/	.	4a/	.	4A\	-rae	-rae,	.	.	.	4a\	-rae	-rae,	.	.	4a\	-rae	-rae,	.	.	.	4A/	.	4e\	.	.	.	.	.	.	.	4aa/	.
!	!	!	!	!	!	!	!LO:LB:g=original	!	!	!	!	!	!LO:LB:g=original	!	!	!	!	!	!	!	!	!	!	!	!	!	!	!	!	!	!	!	!	!	!
=13	=13	=13	=13	=13	=13	=13	=13	=13	=13	=13	=13	=13	=13	=13	=13	=13	=13	=13	=13	=13	=13	=13	=13	=13	=13	=13	=13	=13	=13	=13	=13	=13	=13	=13	=13
*	*	*	*^	*	*	*	*	*	*	*	*	*	*	*	*	*	*	*	*	*	*	*	*	*	*	*	*	*	*	*	*	*	*	*	*
!	!	!	!	!	!	!LO:SIC:s=4gg\	!	!	!	!	!	!	!	!	!	!	!	!	!LO:SIC:s=(4gg\	!	!	!	!	!	!	!	!	!	!	!	!	!	!	!	!	!
4A 4AA\	7	.	4a/	4e\	.	4ggn\	.	2A\	Vi-	vi-	.	.	2.ryy	2a\	Vi-	vi-	.	.	4gg\	Vi-	vi-	.	.	2.ryy	4A/	.	4e\	.	2.ee\	.	2.gg\	.	4ee\	.	2.eee\	.
!	!	!	!	!	!	!	!	!	!	!	!	!	!	!	!	!	!	!	!LO:SIC:s=4ee\)	!	!	!	!	!	!	!	!	!	!	!	!	!	!	!	!	!
4A 4AA\	.	.	4a/	4e\	.	4ee\	.	.	.	.	.	.	.	.	.	.	.	.	4ee\	.	.	.	.	.	4A/	.	4e\	.	.	.	.	.	4ee\	.	.	.
4A 4AA\	.	.	4a/	4e\	.	8cc#\L	.	4A\	-ſi-	-si-	.	.	.	4a\	-ſi-	-si-	.	.	8cc#\L	-ſi-	-si-	.	.	.	4A/	.	4e\	.	.	.	.	.	4ee\	.	.	.
.	.	.	.	.	.	8a\J	.	.	.	.	.	.	.	.	.	.	.	.	8a\J	.	.	.	.	.	.	.	.	.	.	.	.	.	.	.	.	.
*	*	*	*v	*v	*	*	*	*	*	*	*	*	*	*	*	*	*	*	*	*	*	*	*	*	*	*	*	*	*	*	*	*	*	*	*	*
=14	=14	=14	=14	=14	=14	=14	=14	=14	=14	=14	=14	=14	=14	=14	=14	=14	=14	=14	=14	=14	=14	=14	=14	=14	=14	=14	=14	=14	=14	=14	=14	=14	=14	=14	=14
!LO:TX:t=P:problem:8_ - czy to bc czy skrótowy zapis dodanego dźwięku o oktawę niżej?	!	!	!	!	!	!	!	!	!	!	!	!	!	!	!	!	!	!	!	!	!	!	!	!	!	!	!	!	!	!	!	!	!	!	!
4D\	8_	.	4a 4f#/	.	4.dd\	.	4.D\	-bi-	-bi-	.	.	2.ryy	4.a\	-bi-	-bi-	.	.	4.dd\	-bi-	-bi-	.	.	2.ryy	2d\	.	2f#\	.	2.dd\	.	2.ff#\	.	4ff#\	.	2.fff#\	.
4D\	.	.	4a 4f#/	.	.	.	.	.	.	.	.	.	.	.	.	.	.	.	.	.	.	.	.	.	.	.	.	.	.	.	.	4ff#\	.	.	.
.	.	.	.	.	8ee\	.	8D\	-li-	-li-	.	.	.	8a\	-li-	-li-	.	.	8ee\	-li-	-li-	.	.	.	.	.	.	.	.	.	.	.	.	.	.	.
4D\	.	.	4a 4f#/	.	4ff#\	.	4D\	-um	-um	.	.	.	4a\	-um	-um	.	.	4ff#\	-um	-um	.	.	.	4d\	.	4f#\	.	.	.	.	.	4ff#\	.	.	.
=15	=15	=15	=15	=15	=15	=15	=15	=15	=15	=15	=15	=15	=15	=15	=15	=15	=15	=15	=15	=15	=15	=15	=15	=15	=15	=15	=15	=15	=15	=15	=15	=15	=15	=15	=15
*	*	*	*^	*	*	*	*	*	*	*	*	*	*	*	*	*	*	*	*	*	*	*	*	*	*	*	*	*	*	*	*	*	*	*	*
*	*	*	*	*2\right	*	*	*	*	*	*	*	*	*	*	*	*	*	*	*	*	*	*	*	*	*	*	*	*	*	*	*	*	*	*	*	*
4A\	7_	.	4a/	2.e\	.	8gg\L	.	4A\	Om-	om-	.	.	2.ryy	4a\	Om-	om-	.	.	4gg\	Om-	om-	.	.	2.ryy	4A/	.	4e\	.	2.ee\	.	2.gg\	.	2.ccc#\	.	2.eee\	.
.	.	.	.	.	.	8bb\J	.	.	.	.	.	.	.	.	.	.	.	.	.	.	.	.	.	.	.	.	.	.	.	.	.	.	.	.	.	.
4A\	.	.	4a/	.	.	4ee\	.	4A\	-ni-	-ni-	.	.	.	4a\	-ni-	-ni-	.	.	4ee\	-ni-	-ni-	.	.	.	4A/	.	4e\	.	.	.	.	.	.	.	.	.
4A\	.	.	4a/	.	.	8cc#\L	.	4A\	-um	-um	.	.	.	4a\	-um	-um	.	.	8cc#\L	-um	-um	.	.	.	4A/	.	4e\	.	.	.	.	.	.	.	.	.
.	.	.	.	.	.	8a\J	.	.	.	.	.	.	.	.	.	.	.	.	8a\J	.	.	.	.	.	.	.	.	.	.	.	.	.	.	.	.	.
=16	=16	=16	=16	=16	=16	=16	=16	=16	=16	=16	=16	=16	=16	=16	=16	=16	=16	=16	=16	=16	=16	=16	=16	=16	=16	=16	=16	=16	=16	=16	=16	=16	=16	=16	=16	=16
!LO:TX:t=P:problem:8_ - czy to bc czy skrótowy zapis dodanego dźwięku o oktawę niżej?	!	!	!	!	!	!	!	!	!	!	!	!	!	!	!	!	!	!	!	!	!	!	!	!	!	!	!	!	!	!	!	!	!	!	!	!
!	!LO:SIC:t=8_	!	!	!	!	!	!	!	!	!	!	!	!	!	!	!	!	!	!LO:SIC:s=(4.dd\	!	!	!	!	!	!	!	!	!	!	!	!	!	!	!	!	!
4D\	.	.	4a/	2.f#\	.	4.dd\	.	2D\	et	et	.	.	2.ryy	2a\	et	et	.	.	4.dd\	et	et	.	.	2.ryy	2.d\	.	2f#\	.	2.dd\	.	2.ff#\	.	2.ddd\	.	2.ddd\	.
4D\	.	.	4a/	.	.	.	.	.	.	.	.	.	.	.	.	.	.	.	.	.	.	.	.	.	.	.	.	.	.	.	.	.	.	.	.	.
!	!	!	!	!	!	!	!	!	!	!	!	!	!	!	!	!	!	!	!LO:SIC:s=8ee\)	!	!	!	!	!	!	!	!	!	!	!	!	!	!	!	!	!
.	.	.	.	.	.	8ee\	.	.	.	.	.	.	.	.	.	.	.	.	8ee\	.	.	.	.	.	.	.	.	.	.	.	.	.	.	.	.	.
4D\	.	.	4a/	.	.	4ff#\	.	4D\	in-	in-	.	.	.	4a\	in-	in-	.	.	4ff#\	in-	in-	.	.	.	.	.	4f#\	.	.	.	.	.	.	.	.	.
!	!	!	!	!	!	!	!	!	!	!	!	!	!	!	!	!	!	!	!	!	!	!	!	!	!	!	!	!	!LO:LB:g=original	!	!	!	!	!	!	!
=17	=17	=17	=17	=17	=17	=17	=17	=17	=17	=17	=17	=17	=17	=17	=17	=17	=17	=17	=17	=17	=17	=17	=17	=17	=17	=17	=17	=17	=17	=17	=17	=17	=17	=17	=17	=17
4A\	7_	.	4a/	2.e\	.	8gg\L	.	8A\	-vi-	-vi-	.	.	2.ryy	8a\	-vi-	-vi-	.	.	8gg\	-vi-	-vi-	.	.	2.ryy	2A/	.	2e\	.	2ee\	.	2gg\	.	4ccc#\	.	2.eee\	.
.	.	.	.	.	.	8ee\J	.	8A\	-ſi-	-si-	.	.	.	8a\	-ſi-	-si-	.	.	8ee\	-ſi-	-si-	.	.	.	.	.	.	.	.	.	.	.	.	.	.	.
4A\	.	.	4a/	.	.	4b\	.	4A\	-bi-	-bi-	.	.	.	4b\	-bi-	-bi-	.	.	4b\	-bi-	-bi-	.	.	.	.	.	.	.	.	.	.	.	4bb\	.	.	.
4A\	.	.	4a/	.	.	4cc#\	.	4A\	-li-	-li-	.	.	.	4a\	-li-	-li-	.	.	4cc#\	-li-	-li-	.	.	.	4A/	.	4e\	.	4ee\	.	4gg\	.	4ccc#\	.	.	.
=18	=18	=18	=18	=18	=18	=18	=18	=18	=18	=18	=18	=18	=18	=18	=18	=18	=18	=18	=18	=18	=18	=18	=18	=18	=18	=18	=18	=18	=18	=18	=18	=18	=18	=18	=18	=18
!	!	!	!	!	!	!	!	!	!	!	!	!	!	!	!	!	!	!	!	!	!	!	!	!	!	!	!	!	!	!	!	!	!LO:MO:mod=2.ddd\	!	!	!
4d\	X	.	4a/	2.f#\	.	2.dd\	.	2.D\	-um	-um.	.	.	2.ryy	2.a\	-um	-um.	.	.	2.dd\	-um	-um.	.	.	2.ryy	4d\	.	4f#\	.	2.dd\	.	2.ff#\	.	2ddd\	.	2.ddd\	.
8A\L	.	.	4a/	.	.	.	.	.	.	.	.	.	.	.	.	.	.	.	.	.	.	.	.	.	8A/L	.	8a\L	.	.	.	.	.	.	.	.	.
8F#\J	.	.	.	.	.	.	.	.	.	.	.	.	.	.	.	.	.	.	.	.	.	.	.	.	8F#/J	.	8f#\J	.	.	.	.	.	.	.	.	.
!	!	!	!	!	!	!	!	!	!	!	!	!	!	!	!	!	!	!	!	!	!	!	!	!	!	!	!	!	!	!	!	!	!LO:MO:mod=.	!	!	!
4D\	.	.	4a/	.	.	.	.	.	.	.	.	.	.	.	.	.	.	.	.	.	.	.	.	.	4D/	.	4d\	.	.	.	.	.	4r	.	.	.
*	*	*	*v	*v	*	*	*	*	*	*	*	*	*	*	*	*	*	*	*	*	*	*	*	*	*	*	*	*	*	*	*	*	*	*	*	*
=19	=19	=19	=19	=19	=19	=19	=19	=19	=19	=19	=19	=19	=19	=19	=19	=19	=19	=19	=19	=19	=19	=19	=19	=19	=19	=19	=19	=19	=19	=19	=19	=19	=19	=19	=19
2.D 2.DD/	.	.	8d/L	.	8dd\L	.	2D\	et	Et	.	.	2.ryy	2a\	et	Et	.	.	2a\	et	Et	.	.	2.ryy	2.f#\	.	2.a\	.	2.dd\	.	2.ff#\	.	2.aa\	.	2.aa\	.
.	.	.	8f#/	.	8ff#\	.	.	.	.	.	.	.	.	.	.	.	.	.	.	.	.	.	.	.	.	.	.	.	.	.	.	.	.	.	.
.	.	.	8a/	.	8aa\	.	.	.	.	.	.	.	.	.	.	.	.	.	.	.	.	.	.	.	.	.	.	.	.	.	.	.	.	.	.
.	.	.	8g#X/	.	8gg#X\	.	.	.	.	.	.	.	.	.	.	.	.	.	.	.	.	.	.	.	.	.	.	.	.	.	.	.	.	.	.
.	.	.	8e/	.	8ee\	.	4D\	in	in	.	.	.	4a\	in	in	.	.	4a\	in	in	.	.	.	.	.	.	.	.	.	.	.	.	.	.	.
.	.	.	8g#/J	.	8gg#\J	.	.	.	.	.	.	.	.	.	.	.	.	.	.	.	.	.	.	.	.	.	.	.	.	.	.	.	.	.	.
=20	=20	=20	=20	=20	=20	=20	=20	=20	=20	=20	=20	=20	=20	=20	=20	=20	=20	=20	=20	=20	=20	=20	=20	=20	=20	=20	=20	=20	=20	=20	=20	=20	=20	=20	=20
!LO:TX:b:t=_:mod=	!	!	!	!	!	!	!	!	!	!	!	!	!	!	!	!	!	!	!	!	!	!	!	!	!	!	!	!	!	!	!	!	!	!	!
!LO:SIC:s=2.D 2.DD/	!	!	!	!	!	!	!	!	!	!	!	!	!	!	!	!	!	!	!	!	!	!	!	!	!	!	!	!	!	!	!	!	!	!	!
2.D 2.DDyy/	.	.	8a/L	.	8aa\L	.	2D\	U-	u-	.	.	2.ryy	2f#\	U-	u-	.	.	2a\	U-	u-	.	.	2.ryy	2.f#\	.	2.a\	.	2.a/	.	2.ff#\	.	2.aa\	.	2.aa\	.
!	!	!	!LO:SIC:v:s=8g#/	!	!LO:SIC:v:s=8gg#\	!	!	!	!	!	!	!	!	!	!	!	!	!	!	!	!	!	!	!	!	!	!	!	!	!	!	!	!	!	!
.	.	.	8g/	.	8gg\	.	.	.	.	.	.	.	.	.	.	.	.	.	.	.	.	.	.	.	.	.	.	.	.	.	.	.	.	.	.
.	.	.	8a/	.	8aa\	.	.	.	.	.	.	.	.	.	.	.	.	.	.	.	.	.	.	.	.	.	.	.	.	.	.	.	.	.	.
.	.	.	8b/	.	8bb\	.	.	.	.	.	.	.	.	.	.	.	.	.	.	.	.	.	.	.	.	.	.	.	.	.	.	.	.	.	.
.	.	.	8a/	.	8aa\	.	4D\	-num	-num	.	.	.	4f#\	-num	-num	.	.	4a\	-num	-num	.	.	.	.	.	.	.	.	.	.	.	.	.	.	.
.	.	.	8gn/J	.	8ggn\J	.	.	.	.	.	.	.	.	.	.	.	.	.	.	.	.	.	.	.	.	.	.	.	.	.	.	.	.	.	.
=21	=21	=21	=21	=21	=21	=21	=21	=21	=21	=21	=21	=21	=21	=21	=21	=21	=21	=21	=21	=21	=21	=21	=21	=21	=21	=21	=21	=21	=21	=21	=21	=21	=21	=21	=21
!LO:TX:b:t=_:mod=	!	!	!	!	!	!	!	!	!	!	!	!	!	!	!	!	!	!	!	!	!	!	!	!	!	!	!	!	!	!	!	!	!	!	!
!LO:SIC:s=2.D 2.DD/	!	!	!	!	!	!	!	!	!	!	!	!	!	!	!	!	!	!	!	!	!	!	!	!	!	!	!	!	!	!	!	!	!	!	!
2.D 2.DDyy/	.	.	8f#/L	.	8ff#\L	.	2D\	Do-	Do-	.	.	2.ryy	2f#\	Do-	Do-	.	.	2a\	Do-	Do-	.	.	2.ryy	2.d\	.	2.f#\	.	2.a/	.	2.ff#\	.	2.ff#\	.	2.aa\	.
.	.	.	8e/	.	8ee\	.	.	.	.	.	.	.	.	.	.	.	.	.	.	.	.	.	.	.	.	.	.	.	.	.	.	.	.	.	.
.	.	.	8g/	.	8gg\	.	.	.	.	.	.	.	.	.	.	.	.	.	.	.	.	.	.	.	.	.	.	.	.	.	.	.	.	.	.
.	.	.	8f#/	.	8ff#\	.	.	.	.	.	.	.	.	.	.	.	.	.	.	.	.	.	.	.	.	.	.	.	.	.	.	.	.	.	.
.	.	.	8e/	.	8ee\	.	4D\	-mi-	-mi-	.	.	.	4f#\	-mi-	-mi-	.	.	4a\	-mi-	-mi-	.	.	.	.	.	.	.	.	.	.	.	.	.	.	.
.	.	.	8d/J	.	8dd\J	.	.	.	.	.	.	.	.	.	.	.	.	.	.	.	.	.	.	.	.	.	.	.	.	.	.	.	.	.	.
=22	=22	=22	=22	=22	=22	=22	=22	=22	=22	=22	=22	=22	=22	=22	=22	=22	=22	=22	=22	=22	=22	=22	=22	=22	=22	=22	=22	=22	=22	=22	=22	=22	=22	=22	=22
2.A 2.AA/	.	.	8c#/L	.	8cc#\L	.	2.A\	-num	-num	.	.	2.ryy	2.e\	-num	-num	.	.	2.a\	-num	-num	.	.	2.ryy	2.A/	.	2.e\	.	2.cc#\	.	2.ee\	.	2.ee\	.	8ccc#\L	.
.	.	.	8d/	.	8dd\	.	.	.	.	.	.	.	.	.	.	.	.	.	.	.	.	.	.	.	.	.	.	.	.	.	.	.	.	8ddd\	.
.	.	.	8e/	.	8ee\	.	.	.	.	.	.	.	.	.	.	.	.	.	.	.	.	.	.	.	.	.	.	.	.	.	.	.	.	8eee\	.
.	.	.	8c#/J	.	8cc#\J	.	.	.	.	.	.	.	.	.	.	.	.	.	.	.	.	.	.	.	.	.	.	.	.	.	.	.	.	8ccc#\J	.
.	.	.	4A/	.	4a/	.	.	.	.	.	.	.	.	.	.	.	.	.	.	.	.	.	.	.	.	.	.	.	.	.	.	.	.	4aa\	.
!	!	!	!	!	!LO:LB:g=original	!	!	!	!	!	!	!	!	!	!	!	!	!	!	!	!	!	!	!	!	!	!	!	!	!	!	!	!	!	!
=23	=23	=23	=23	=23	=23	=23	=23	=23	=23	=23	=23	=23	=23	=23	=23	=23	=23	=23	=23	=23	=23	=23	=23	=23	=23	=23	=23	=23	=23	=23	=23	=23	=23	=23	=23
2.D 2.DD/	.	.	8d/L	.	8dd\L	.	2D\	Je-	Je-	.	.	2.ryy	2f#\	Je-	Je-	.	.	2a\	Je-	Je-	.	.	2.ryy	2.f#\	.	2.a\	.	2.a/	.	2.ff#\	.	2.ff#\	.	2.ddd\	.
.	.	.	8f#/	.	8ff#\	.	.	.	.	.	.	.	.	.	.	.	.	.	.	.	.	.	.	.	.	.	.	.	.	.	.	.	.	.	.
.	.	.	8a/	.	8aa\	.	.	.	.	.	.	.	.	.	.	.	.	.	.	.	.	.	.	.	.	.	.	.	.	.	.	.	.	.	.
.	.	.	8g#X/	.	8gg#X\	.	.	.	.	.	.	.	.	.	.	.	.	.	.	.	.	.	.	.	.	.	.	.	.	.	.	.	.	.	.
.	.	.	8e/	.	8ee\	.	4D\	-ſum	-sum	.	.	.	4f#\	-ſum	-sum	.	.	4a\	-ſum	-sum	.	.	.	.	.	.	.	.	.	.	.	.	.	.	.
.	.	.	8g#/J	.	8gg#\J	.	.	.	.	.	.	.	.	.	.	.	.	.	.	.	.	.	.	.	.	.	.	.	.	.	.	.	.	.	.
=24	=24	=24	=24	=24	=24	=24	=24	=24	=24	=24	=24	=24	=24	=24	=24	=24	=24	=24	=24	=24	=24	=24	=24	=24	=24	=24	=24	=24	=24	=24	=24	=24	=24	=24	=24
!LO:TX:b:t=_	!	!	!	!	!	!	!	!	!	!	!	!	!	!	!	!	!	!	!	!	!	!	!	!	!	!	!	!	!	!	!	!	!	!	!
!LO:SIC:s=2.D 2.DD/	!	!	!	!	!	!	!	!	!	!	!	!	!	!	!	!	!	!	!	!	!	!	!	!	!	!	!	!	!	!	!	!	!	!	!
2.D 2.DDyy/	.	.	8a/L	.	8aa\L	.	2D\	Chri-	Chris-	.	.	2.ryy	2f#\	(Chris)-	(Chris)-	.	.	2a\	(Chris)-	(Chris)-	.	.	2.ryy	2f#\	.	2a\	.	2.a/	.	2.ff#\	.	2.ff#\	.	2.ddd\	.
!	!	!	!LO:SIC:v:s=8g#/	!	!LO:SIC:v:s=8gg#\	!	!	!	!	!	!	!	!	!	!	!	!	!	!	!	!	!	!	!	!	!	!	!	!	!	!	!	!	!	!
.	.	.	8g/	.	8gg\	.	.	.	.	.	.	.	.	.	.	.	.	.	.	.	.	.	.	.	.	.	.	.	.	.	.	.	.	.	.
.	.	.	8a/	.	8aa\	.	.	.	.	.	.	.	.	.	.	.	.	.	.	.	.	.	.	.	.	.	.	.	.	.	.	.	.	.	.
.	.	.	8b/	.	8bb\	.	.	.	.	.	.	.	.	.	.	.	.	.	.	.	.	.	.	.	.	.	.	.	.	.	.	.	.	.	.
.	.	.	8a/	.	8aa\	.	4D\	-ſtum	-tum,	.	.	.	4f#\	-tum	-tum,	.	.	4a\	-tum	-tum,	.	.	.	4f#\	.	4a\	.	.	.	.	.	.	.	.	.
.	.	.	8gn/J	.	8ggn\J	.	.	.	.	.	.	.	.	.	.	.	.	.	.	.	.	.	.	.	.	.	.	.	.	.	.	.	.	.	.
*	*	*	*	*	*	*	*	*	*	*	*	*	*custos:f#	*	*	*	*	*	*	*	*	*	*	*	*	*	*	*	*	*	*	*	*	*	*
!	!	!	!LO:PB:g=original	!	!	!	!	!	!	!	!	!	!LO:PB:g=original	!	!	!	!	!	!	!	!	!	!	!	!	!	!	!	!	!	!	!	!	!	!
=25	=25	=25	=25	=25	=25	=25	=25	=25	=25	=25	=25	=25	=25	=25	=25	=25	=25	=25	=25	=25	=25	=25	=25	=25	=25	=25	=25	=25	=25	=25	=25	=25	=25	=25	=25
!LO:TX:b:t=_:mod=	!	!	!	!	!	!	!	!	!	!	!	!	!	!	!	!	!	!	!	!	!	!	!	!	!	!	!	!	!	!	!	!	!	!	!
!LO:SIC:s=2.D 2.DD/	!	!	!	!	!	!	!	!	!	!	!	!	!	!	!	!	!	!	!	!	!	!	!	!	!	!	!	!	!	!	!	!	!	!	!
2.D 2.DDyy/	.	.	8f#/L	.	8ff#\L	.	2D\	Fi-	Fi-	.	.	2.ryy	2f#\	Fi-	Fi-	.	.	2a\	Fi-	Fi-	.	.	2.ryy	2d\	.	2f#\	.	2.a/	.	2.ff#\	.	2.ff#\	.	2.aa\	.
.	.	.	8e/	.	8ee\	.	.	.	.	.	.	.	.	.	.	.	.	.	.	.	.	.	.	.	.	.	.	.	.	.	.	.	.	.	.
.	.	.	8g/	.	8gg\	.	.	.	.	.	.	.	.	.	.	.	.	.	.	.	.	.	.	.	.	.	.	.	.	.	.	.	.	.	.
.	.	.	8f#/	.	8ff#\	.	.	.	.	.	.	.	.	.	.	.	.	.	.	.	.	.	.	.	.	.	.	.	.	.	.	.	.	.	.
.	.	.	8e/	.	8ee\	.	4D\	-li-	-li-	.	.	.	4f#\	-li-	-li-	.	.	4a\	-li-	-li-	.	.	.	4d\	.	4f#\	.	.	.	.	.	.	.	.	.
.	.	.	8d/J	.	8dd\J	.	.	.	.	.	.	.	.	.	.	.	.	.	.	.	.	.	.	.	.	.	.	.	.	.	.	.	.	.	.
!	!	!	!	!	!	!	!	!	!	!	!	!	!	!	!	!	!	!LO:LB:g=original	!	!	!	!	!	!LO:LB:g=original	!	!LO:LB:g=original	!	!	!	!	!	!	!	!	!
=26	=26	=26	=26	=26	=26	=26	=26	=26	=26	=26	=26	=26	=26	=26	=26	=26	=26	=26	=26	=26	=26	=26	=26	=26	=26	=26	=26	=26	=26	=26	=26	=26	=26	=26	=26
2.A 2.AA/	.	.	8c#/L	.	8cc#\L	.	2.A\	-um	-um,	.	.	2.ryy	2.e\	-um	-um,	.	.	2.a\	-um	-um,	.	.	2.ryy	2.A/	.	2.e\	.	2.cc#\	.	2.ee\	.	2.ee\	.	8ccc#\L	.
.	.	.	8d/	.	8dd\	.	.	.	.	.	.	.	.	.	.	.	.	.	.	.	.	.	.	.	.	.	.	.	.	.	.	.	.	8ddd\	.
.	.	.	8e/	.	8ee\	.	.	.	.	.	.	.	.	.	.	.	.	.	.	.	.	.	.	.	.	.	.	.	.	.	.	.	.	8eee\	.
.	.	.	8c#/J	.	8cc#\J	.	.	.	.	.	.	.	.	.	.	.	.	.	.	.	.	.	.	.	.	.	.	.	.	.	.	.	.	8ccc#\J	.
.	.	.	4A/	.	4a/	.	.	.	.	.	.	.	.	.	.	.	.	.	.	.	.	.	.	.	.	.	.	.	.	.	.	.	.	4aa/	.
*	*	*	*	*	*	*	*	*	*	*	*	*	*	*	*	*	*	*	*	*	*	*	*	*	*	*	*	*	*	*	*	*custos:ee	*	*custos:cc#	*
!	!	!	!	!	!	!	!LO:LB:g=original	!	!	!	!	!	!	!	!	!	!	!	!	!	!	!	!	!	!	!	!	!	!	!	!	!LO:LB:g=original	!	!LO:LB:g=original	!
=27	=27	=27	=27	=27	=27	=27	=27	=27	=27	=27	=27	=27	=27	=27	=27	=27	=27	=27	=27	=27	=27	=27	=27	=27	=27	=27	=27	=27	=27	=27	=27	=27	=27	=27	=27
4A 4AA\	.	.	4a 4f#/	.	8gg\L	.	4A\	Fi-	Fi-	.	.	2.ryy	4e\	Fi-	Fi-	.	.	4cc#\	Fi-	Fi-	.	.	2.ryy	4A/	.	4e\	.	4ee\	.	4gg\	.	4ee\	.	4ccc#\	.
.	.	.	.	.	8ff#\	.	.	.	.	.	.	.	.	.	.	.	.	.	.	.	.	.	.	.	.	.	.	.	.	.	.	.	.	.	.
4A 4AA\	.	.	4a 4f#/	.	8gg\	.	4A\	-li-	-li-	.	.	.	4e\	-li-	-li-	.	.	4cc#\	-li-	-li-	.	.	.	4A/	.	4e\	.	4ee\	.	4gg\	.	4ee\	.	4ccc#\	.
.	.	.	.	.	8bb\	.	.	.	.	.	.	.	.	.	.	.	.	.	.	.	.	.	.	.	.	.	.	.	.	.	.	.	.	.	.
4A 4AA\	.	.	4a 4e/	.	8ee\	.	4A\	-um	-um	.	.	.	4e\	-um	-um	.	.	4cc#\	-um	-um	.	.	.	4A/	.	4e\	.	4ee\	.	4gg\	.	4ee\	.	4ccc#\	.
.	.	.	.	.	8cc#\J	.	.	.	.	.	.	.	.	.	.	.	.	.	.	.	.	.	.	.	.	.	.	.	.	.	.	.	.	.	.
=28	=28	=28	=28	=28	=28	=28	=28	=28	=28	=28	=28	=28	=28	=28	=28	=28	=28	=28	=28	=28	=28	=28	=28	=28	=28	=28	=28	=28	=28	=28	=28	=28	=28	=28	=28
*	*	*	*^	*	*	*	*	*	*	*	*	*	*	*	*	*	*	*	*	*	*	*	*	*	*	*	*	*	*	*	*	*	*	*	*
!LO:TX:t=P:problem:8_ - czy to bc czy skrótowy zapis dodanego dźwięku o oktawę niżej?	!	!	!	!	!	!	!	!	!	!	!	!	!	!	!	!	!	!	!	!	!	!	!	!	!	!	!	!	!	!	!	!	!	!	!	!
4D\	8_	.	4a/	2.f#\	.	8dd\L	.	2D\	De-	De-	.	.	2.ryy	2f#\	De-	De-	.	.	2dd\	De-	De-	.	.	2.ryy	2d\	.	2f#\	.	4dd\	.	4ff#\	.	4ff#\	.	4ddd\	.
.	.	.	.	.	.	8ee\	.	.	.	.	.	.	.	.	.	.	.	.	.	.	.	.	.	.	.	.	.	.	.	.	.	.	.	.	.	.
4D\	.	.	4a/	.	.	8ff#\	.	.	.	.	.	.	.	.	.	.	.	.	.	.	.	.	.	.	.	.	.	.	4dd\	.	4ff#\	.	4ff#\	.	4ddd\	.
.	.	.	.	.	.	8gg\J	.	.	.	.	.	.	.	.	.	.	.	.	.	.	.	.	.	.	.	.	.	.	.	.	.	.	.	.	.	.
4D\	.	.	4a/	.	.	4aa\	.	4D\	-i	-i	.	.	.	4f#\	-i	-i	.	.	4dd\	-i	-i	.	.	.	4d\	.	4f#\	.	4dd\	.	4ff#\	.	4ff#\	.	4ddd\	.
!LO:LB:g=original	!	!	!	!	!	!	!	!	!	!	!	!	!	!	!	!	!	!	!	!	!	!	!	!	!	!	!	!	!	!	!	!	!	!	!	!
=29	=29	=29	=29	=29	=29	=29	=29	=29	=29	=29	=29	=29	=29	=29	=29	=29	=29	=29	=29	=29	=29	=29	=29	=29	=29	=29	=29	=29	=29	=29	=29	=29	=29	=29	=29	=29
4A 4AA/	X	.	4a/	2.e\	.	8gg\L	.	2A\	U-	u-	.	.	2.ryy	2e\	U-	u-	.	.	2cc#\	U-	u-	.	.	2.ryy	2A/	.	2e\	.	2ee\	.	2.gg\	.	2.ee\	.	4ccc#\	.
.	.	.	.	.	.	8aa\	.	.	.	.	.	.	.	.	.	.	.	.	.	.	.	.	.	.	.	.	.	.	.	.	.	.	.	.	.	.
4A 4AA/	.	.	4a/	.	.	8bb\	.	.	.	.	.	.	.	.	.	.	.	.	.	.	.	.	.	.	.	.	.	.	.	.	.	.	.	.	4ccc#\	.
.	.	.	.	.	.	8gg\	.	.	.	.	.	.	.	.	.	.	.	.	.	.	.	.	.	.	.	.	.	.	.	.	.	.	.	.	.	.
4A 4AA/	.	.	4a/	.	.	8ee\	.	4A\	-ni-	-ni-	.	.	.	4e\	-ni-	-ni-	.	.	4cc#\	-ni-	-ni-	.	.	.	4A/	.	4e\	.	4ee\	.	.	.	.	.	4ccc#\	.
.	.	.	.	.	.	8cc#\J	.	.	.	.	.	.	.	.	.	.	.	.	.	.	.	.	.	.	.	.	.	.	.	.	.	.	.	.	.	.
!	!	!	!	!	!	!	!	!	!	!	!	!	!	!	!	!	!	!	!	!	!	!	!	!	!	!	!	!	!	!	!LO:LB:g=original	!	!	!	!	!
=30	=30	=30	=30	=30	=30	=30	=30	=30	=30	=30	=30	=30	=30	=30	=30	=30	=30	=30	=30	=30	=30	=30	=30	=30	=30	=30	=30	=30	=30	=30	=30	=30	=30	=30	=30	=30
!LO:TX:t=P:problem:8_ - czy to bc czy skrótowy zapis dodanego dźwięku o oktawę niżej?	!	!	!	!	!	!	!	!	!	!	!	!	!	!	!	!	!	!	!	!	!	!	!	!	!	!	!	!	!	!	!	!	!	!	!	!
4D\	8_	.	4a/	2.f#\	.	8dd\L	.	4.D\	-ge-	-ge-	.	.	2.ryy	4.f#\	-ge-	-ge-	.	.	4.dd\	-Ge-	-ge-	.	.	2.ryy	4.d\	.	4.f#\	.	2dd\	.	2.ff#\	.	2.ff#\	.	8ddd\L	.
.	.	.	.	.	.	8ee\	.	.	.	.	.	.	.	.	.	.	.	.	.	.	.	.	.	.	.	.	.	.	.	.	.	.	.	.	8eee\	.
4D\	.	.	4a/	.	.	8ff#\	.	.	.	.	.	.	.	.	.	.	.	.	.	.	.	.	.	.	.	.	.	.	.	.	.	.	.	.	8fff#\	.
.	.	.	.	.	.	8cc#\J	.	8D\	-ni-	-ni-	.	.	.	8e\	-ni-	-ni-	.	.	8cc#\	-ni-	-ni-	.	.	.	8A/	.	8e\	.	.	.	.	.	.	.	8ccc#\J	.
4D\	.	.	4a/	.	.	4dd\	.	4D\	-tum	-tum,	.	.	.	4f#\	-tum	-tum,	.	.	4dd\	-tum	-tum,	.	.	.	4d\	.	4f#\	.	4dd\	.	.	.	.	.	4ddd\	.
=31	=31	=31	=31	=31	=31	=31	=31	=31	=31	=31	=31	=31	=31	=31	=31	=31	=31	=31	=31	=31	=31	=31	=31	=31	=31	=31	=31	=31	=31	=31	=31	=31	=31	=31	=31	=31
*	*	*	*	*	*	*	*	*	*ij	*ij	*	*	*	*	*	*	*	*	*	*	*	*	*	*	*	*	*	*	*	*	*	*	*	*	*	*
!	!	!	!	!	!	!	!	!	!	!	!	!	!	!	!	!	!	!	!LO:TX:t=P:problem=fragment oznaczony znakami repetycji	!	!	!	!	!	!	!	!	!	!	!	!	!	!	!	!	!
!	!	!	!	!	!	!	!	!	!	!	!	!	!	!	!	!	!	!	!LO:SIC:s=4cc#\	!	!	!	!	!	!	!	!	!	!	!	!	!	!	!	!	!
4AA/	.	.	4a/	2.e\	.	8gg\L	.	4A\	Fi-	Fi-	.	.	2.ryy	4e\	Fi-	Fi-	.	.	4cc#\yy	Fi-	Fi-	.	.	2.ryy	2A/	.	2e\	.	4ee\	.	4gg\	.	2.ee\	.	2.ccc#\	.
.	.	.	.	.	.	8ff#\	.	.	.	.	.	.	.	.	.	.	.	.	.	.	.	.	.	.	.	.	.	.	.	.	.	.	.	.	.	.
!	!	!	!	!	!	!	!	!	!	!	!	!	!	!	!	!	!	!	!LO:SIC:s=4cc#\	!	!	!	!	!	!	!	!	!	!	!	!	!	!	!	!	!
4AA/	.	.	4a/	.	.	8gg\	.	4A\	-li-	-li-	.	.	.	4e\	-li-	-li-	.	.	4cc#\yy	-li-	-li-	.	.	.	.	.	.	.	4ee\	.	4gg\	.	.	.	.	.
.	.	.	.	.	.	8bb\	.	.	.	.	.	.	.	.	.	.	.	.	.	.	.	.	.	.	.	.	.	.	.	.	.	.	.	.	.	.
!	!	!	!	!	!	!	!	!	!	!	!	!	!	!	!	!	!	!	!LO:SIC:s=4cc#\	!	!	!	!	!	!	!	!	!	!	!	!	!	!	!	!	!
4AA/	.	.	4a/	.	.	8ee\	.	4A\	-um	-um	.	.	.	4e\	-um	-um	.	.	4cc#\yy	-um	-um	.	.	.	4A/	.	4e\	.	4ee\	.	4gg\	.	.	.	.	.
.	.	.	.	.	.	8cc#\J	.	.	.	.	.	.	.	.	.	.	.	.	.	.	.	.	.	.	.	.	.	.	.	.	.	.	.	.	.	.
=32	=32	=32	=32	=32	=32	=32	=32	=32	=32	=32	=32	=32	=32	=32	=32	=32	=32	=32	=32	=32	=32	=32	=32	=32	=32	=32	=32	=32	=32	=32	=32	=32	=32	=32	=32	=32
!	!	!	!	!	!	!	!	!	!	!	!	!	!	!	!	!	!	!	!LO:SIC:s=2dd\	!	!	!	!	!	!	!	!	!	!	!	!	!	!	!	!	!
4D\	.	.	4a/	2.f#\	.	8dd\L	.	2D\	De-	De-	.	.	2.ryy	2f#\	De-	De-	.	.	2dd\yy	De-	De-	.	.	2.ryy	2d\	.	2f#\	.	2dd\	.	2ff#\	.	2.ff#\	.	2.ddd\	.
.	.	.	.	.	.	8ee\	.	.	.	.	.	.	.	.	.	.	.	.	.	.	.	.	.	.	.	.	.	.	.	.	.	.	.	.	.	.
4D\	.	.	4a/	.	.	8ff#\	.	.	.	.	.	.	.	.	.	.	.	.	.	.	.	.	.	.	.	.	.	.	.	.	.	.	.	.	.	.
.	.	.	.	.	.	8gg\J	.	.	.	.	.	.	.	.	.	.	.	.	.	.	.	.	.	.	.	.	.	.	.	.	.	.	.	.	.	.
!	!	!	!	!	!	!	!	!	!	!	!	!	!	!	!	!	!	!	!LO:SIC:s=4dd\	!	!	!	!	!	!	!	!	!	!	!	!	!	!	!	!	!
4D\	.	.	4a/	.	.	4aa\	.	4D\	-i	-i	.	.	.	4f#\	-i	-i	.	.	4dd\yy	-i	-i	.	.	.	4d\	.	4f#\	.	4ff#\	.	4aa\	.	.	.	.	.
=33	=33	=33	=33	=33	=33	=33	=33	=33	=33	=33	=33	=33	=33	=33	=33	=33	=33	=33	=33	=33	=33	=33	=33	=33	=33	=33	=33	=33	=33	=33	=33	=33	=33	=33	=33	=33
!	!	!	!	!	!	!	!	!	!	!	!	!	!	!	!	!	!	!	!LO:SIC:s=2cc#\	!	!	!	!	!	!	!	!	!	!	!	!	!	!	!	!	!
4AA/	X	.	4a/	2.e\	.	8gg\L	.	2A\	U-	u-	.	.	2.ryy	2e\	U-	u-	.	.	2cc#\yy	U-	u-	.	.	2.ryy	2A/	.	2e\	.	4ee\	.	4gg\	.	2.ee\	.	2.ccc#\	.
.	.	.	.	.	.	8aa\J	.	.	.	.	.	.	.	.	.	.	.	.	.	.	.	.	.	.	.	.	.	.	.	.	.	.	.	.	.	.
!	!	!	!	!	!	!LO:LB:g=original	!	!	!	!	!	!	!	!	!	!	!	!	!	!	!	!	!	!	!	!	!	!	!	!	!	!	!	!	!	!
4AA/	.	.	4a/	.	.	8bb\L	.	.	.	.	.	.	.	.	.	.	.	.	.	.	.	.	.	.	.	.	.	.	4ee\	.	4gg\	.	.	.	.	.
.	.	.	.	.	.	8gg\	.	.	.	.	.	.	.	.	.	.	.	.	.	.	.	.	.	.	.	.	.	.	.	.	.	.	.	.	.	.
!	!	!	!	!	!	!	!	!	!	!	!	!	!	!	!	!	!	!	!LO:SIC:s=4cc#\	!	!	!	!	!	!	!	!	!	!	!	!	!	!	!	!	!
4AA/	.	.	4a/	.	.	8ee\	.	4A\	-ni-	-ni-	.	.	.	4e\	-ni-	-ni-	.	.	4cc#\yy	-ni-	-ni-	.	.	.	4A/	.	4e\	.	4ee\	.	4gg\	.	.	.	.	.
.	.	.	.	.	.	8cc#\J	.	.	.	.	.	.	.	.	.	.	.	.	.	.	.	.	.	.	.	.	.	.	.	.	.	.	.	.	.	.
*	*	*	*	*	*	*	*	*	*	*	*	*	*	*custos:f#	*	*	*	*	*	*	*	*	*	*	*	*	*	*	*	*	*	*	*	*	*	*
!	!	!	!	!	!	!	!	!	!	!	!	!	!	!LO:LB:g=original	!	!	!	!	!	!	!	!	!	!	!	!	!	!	!	!	!	!	!	!	!	!
=34	=34	=34	=34	=34	=34	=34	=34	=34	=34	=34	=34	=34	=34	=34	=34	=34	=34	=34	=34	=34	=34	=34	=34	=34	=34	=34	=34	=34	=34	=34	=34	=34	=34	=34	=34	=34
!	!	!	!	!	!	!	!	!	!	!	!	!	!	!	!	!	!	!	!LO:SIC:s=4.dd\	!	!	!	!	!	!	!	!	!	!	!	!	!	!	!	!	!
4D\	.	.	4a/	2.f#\	.	8dd\L	.	4.D\	-ge-	-ge-	.	.	2.ryy	4.f#\	-ge-	-ge-	.	.	4.dd\yy	-Ge-	-ge-	.	.	2.ryy	4.d\	.	4.f#\	.	2dd\	.	2ff#\	.	2.ff#\	.	8ddd\L	.
.	.	.	.	.	.	8ee\	.	.	.	.	.	.	.	.	.	.	.	.	.	.	.	.	.	.	.	.	.	.	.	.	.	.	.	.	8eee\	.
4AA/	.	.	4a/	.	.	8ff#\	.	.	.	.	.	.	.	.	.	.	.	.	.	.	.	.	.	.	.	.	.	.	.	.	.	.	.	.	8fff#\	.
!	!	!	!	!	!	!	!	!	!	!	!	!	!	!	!	!	!	!	!LO:SIC:s=8cc#\	!	!	!	!	!	!	!	!	!	!	!	!	!	!	!	!	!
.	.	.	.	.	.	8cc#\J	.	8D\	-ni-	-ni-	.	.	.	8e\	-ni-	-ni-	.	.	8cc#\yy	-ni-	-ni-	.	.	.	8A/	.	8e\	.	.	.	.	.	.	.	8ccc#\J	.
!	!	!	!	!	!	!	!	!	!	!	!	!	!	!	!	!	!	!	!LO:SIC:s=4dd\	!	!	!	!	!	!	!	!	!	!	!	!	!	!	!	!	!
4D\	.	.	4a/	.	.	4dd\	.	4D\	-tum	-tum.	.	.	.	4f#\	-tum	-tum.	.	.	4dd\yy	-tum	-tum.	.	.	.	4d\	.	4f#\	.	4dd\	.	4ff#\	.	.	.	4ddd\	.
*	*	*	*	*	*	*	*	*	*Xij	*Xij	*	*	*	*	*	*	*	*	*	*	*	*	*	*	*	*	*	*	*	*	*	*	*	*	*	*
=35	=35	=35	=35	=35	=35	=35	=35	=35	=35	=35	=35	=35	=35	=35	=35	=35	=35	=35	=35	=35	=35	=35	=35	=35	=35	=35	=35	=35	=35	=35	=35	=35	=35	=35	=35	=35
4DD/	.	.	4a/	4f#\	.	8dd\L	.	2D/	et	Et	.	.	2.ryy	2f#\	Et	Et	.	.	2dd\	Et	Et	.	.	2.ryy	4F#/	.	4d\	.	4f#/	.	4dd\	.	4ff#\	.	2ddd\	.
.	.	.	.	.	.	8cc#\J	.	.	.	.	.	.	.	.	.	.	.	.	.	.	.	.	.	.	.	.	.	.	.	.	.	.	.	.	.	.
4D\	.	.	4a/	4f#\	.	4dd\	.	.	.	.	.	.	.	.	.	.	.	.	.	.	.	.	.	.	4F#/	.	4d\	.	4f#/	.	4dd\	.	4ff#\	.	.	.
4C#\	6	.	4a/	4e\	.	4ee\	.	4C#/	ex	ex	.	.	.	4a\	ex	ex	.	.	4ee\	ex	ex	.	.	.	4A/	.	4e\	.	4a/	.	4ee\	.	4ee\	.	4eee\	.
*	*	*	*v	*v	*	*	*	*	*	*	*	*	*	*	*	*	*	*	*	*	*	*	*	*	*	*	*	*	*	*	*	*	*	*	*	*
=36	=36	=36	=36	=36	=36	=36	=36	=36	=36	=36	=36	=36	=36	=36	=36	=36	=36	=36	=36	=36	=36	=36	=36	=36	=36	=36	=36	=36	=36	=36	=36	=36	=36	=36	=36
4D\	.	.	4a 4f#/	.	2ff#\	.	2D\	Pa-	Pa-	.	.	2.ryy	2a\	Pa-	Pa-	.	.	2ff#\	Pa-	Pa-	.	.	2.ryy	2d\	.	2f#\	.	2a/	.	2ff#\	.	2ff#\	.	2fff#\	.
4d\	.	.	4a 4f#/	.	.	.	.	.	.	.	.	.	.	.	.	.	.	.	.	.	.	.	.	.	.	.	.	.	.	.	.	.	.	.	.
4c#\	6	.	4a 4e/	.	4ee\	.	4C#/	-tre	-tre	.	.	.	4a\	-tre	-tre	.	.	4ee\	-tre	-tre	.	.	.	4A/	.	4e\	.	4a/	.	4ee\	.	4ee\	.	4eee\	.
!	!	!	!	!	!	!	!	!	!	!	!	!	!	!	!	!	!	!	!	!	!	!	!	!	!	!	!	!LO:LB:g=original	!	!	!	!	!	!	!
=37	=37	=37	=37	=37	=37	=37	=37	=37	=37	=37	=37	=37	=37	=37	=37	=37	=37	=37	=37	=37	=37	=37	=37	=37	=37	=37	=37	=37	=37	=37	=37	=37	=37	=37	=37
!	!	!	!	!	!	!	!	!	!	!	!	!	!	!	!	!	!	!LO:SIC:s=(8ff#\L	!	!	!	!	!	!	!	!	!	!	!	!	!	!	!	!	!
8d\L	.	.	4a 4f#/	.	8ff#\L	.	(4D\	na-	na-	.	.	2.ryy	(4a\	na-	na-	.	.	8ff#\L	na-	na-	.	.	2.ryy	4d\	.	4f#\	.	4a/	.	4ff#\	.	4ff#\	.	8fff#\L	.
8B\J	.	.	.	.	8dd\J	.	.	.	.	.	.	.	.	.	.	.	.	8dd\J	.	.	.	.	.	.	.	.	.	.	.	.	.	.	.	8ddd\J	.
4G\	6	.	4b/	.	4ee\	.	4G\	.	.	.	.	.	4g\	.	.	.	.	4ee\	.	.	.	.	.	4r	.	4e\	.	4g/	.	4ff#\	.	4gg\	.	4eee\	.
4A\	3	.	4e/	.	8ee\L	.	4A\)	.	.	.	.	.	4e\)	.	.	.	.	8ee\L	.	.	.	.	.	4A/	.	4e\	.	4g/	.	4ee\	.	4ee\	.	8eee\L	.
!	!	!	!	!	!	!	!	!	!	!	!	!	!	!	!	!	!	!LO:SIC:s=8cc#\J)	!	!	!	!	!	!	!	!	!	!	!	!	!	!	!	!	!
.	.	.	.	.	8cc#\J	.	.	.	.	.	.	.	.	.	.	.	.	8cc#\J	.	.	.	.	.	.	.	.	.	.	.	.	.	.	.	8ccc#\J	.
!	!	!	!	!	!	!	!	!	!	!	!	!	!	!	!	!	!	!	!	!	!	!	!	!	!	!LO:LB:g=original	!	!	!	!	!	!	!	!	!
=38	=38	=38	=38	=38	=38	=38	=38	=38	=38	=38	=38	=38	=38	=38	=38	=38	=38	=38	=38	=38	=38	=38	=38	=38	=38	=38	=38	=38	=38	=38	=38	=38	=38	=38	=38
!	!	!	!	!	!	!	!LO:MO:mod=2.D\	!	!	!	!	!	!	!	!	!	!	!	!	!	!	!	!	!	!	!	!	!	!	!	!	!	!	!	!
4D/	.	.	4a 4f#/	.	2.dd\	.	2D\	-tum	-tum	.	.	2.ryy	2.f#\	-tum	-tum	.	.	2.dd\	-tum	-tum	.	.	2.ryy	2.F#/	.	2.d\	.	2.f#/	.	2.dd\	.	2ff#\	.	4ddd\	.
8AA/L	.	.	4a/	.	.	.	.	.	.	.	.	.	.	.	.	.	.	.	.	.	.	.	.	.	.	.	.	.	.	.	.	.	.	4r	.
8FF#/J	.	.	.	.	.	.	.	.	.	.	.	.	.	.	.	.	.	.	.	.	.	.	.	.	.	.	.	.	.	.	.	.	.	.	.
!	!	!	!	!	!	!	!LO:MO:mod=.	!	!	!	!	!	!	!	!	!	!	!	!	!	!	!	!	!	!	!	!	!	!	!	!	!	!	!	!
4DD/	.	.	4f#/	.	.	.	4r	.	.	.	.	.	.	.	.	.	.	.	.	.	.	.	.	.	.	.	.	.	.	.	.	4r	.	4r	.
!	!	!	!	!	!	!	!	!	!	!	!	!	!	!	!	!	!	!	!	!	!	!	!	!LO:LB:g=original	!	!	!	!	!	!	!	!	!	!	!
=39	=39	=39	=39	=39	=39	=39	=39	=39	=39	=39	=39	=39	=39	=39	=39	=39	=39	=39	=39	=39	=39	=39	=39	=39	=39	=39	=39	=39	=39	=39	=39	=39	=39	=39	=39
4D\	.	.	4a 4f#/	.	8dd\L	.	2D/	an-	an-	.	.	2.ryy	2f#\	an-	an-	.	.	2dd\	an-	an-	.	.	2.ryy	2F#/	.	2d\	.	4f#/	.	4dd\	.	4ff#\	.	4ddd\	.
.	.	.	.	.	8cc#\J	.	.	.	.	.	.	.	.	.	.	.	.	.	.	.	.	.	.	.	.	.	.	.	.	.	.	.	.	.	.
4D\	.	.	4a 4f#/	.	8dd\L	.	.	.	.	.	.	.	.	.	.	.	.	.	.	.	.	.	.	.	.	.	.	4f#/	.	4dd\	.	4ff#\	.	4ddd\	.
.	.	.	.	.	8ff#\	.	.	.	.	.	.	.	.	.	.	.	.	.	.	.	.	.	.	.	.	.	.	.	.	.	.	.	.	.	.
4C#/	3	.	4a 4e/	.	8ee\	.	4C#/	-te	-te	.	.	.	4a\	-te	-te	.	.	4ee\	-te	-te	.	.	.	4A/	.	4e\	.	4a/	.	4ee\	.	4ee\	.	4eee\	.
.	.	.	.	.	8gg\J	.	.	.	.	.	.	.	.	.	.	.	.	.	.	.	.	.	.	.	.	.	.	.	.	.	.	.	.	.	.
!	!	!	!	!	!	!	!LO:LB:g=original	!	!	!	!	!	!	!	!	!	!	!	!	!	!	!	!	!	!	!	!	!	!	!	!	!	!	!	!
=40	=40	=40	=40	=40	=40	=40	=40	=40	=40	=40	=40	=40	=40	=40	=40	=40	=40	=40	=40	=40	=40	=40	=40	=40	=40	=40	=40	=40	=40	=40	=40	=40	=40	=40	=40
4D\	.	.	4a 4f#/	.	2ff#\	.	4.D/	Om-	om-	.	.	2.ryy	4.a\	om-	om-	.	.	4.ff#\	om-	om-	.	.	2.ryy	2d\	.	2f#\	.	2a/	.	2ff#\	.	2ff#\	.	2fff#\	.
4d\	.	.	4a 4f#/	.	.	.	.	.	.	.	.	.	.	.	.	.	.	.	.	.	.	.	.	.	.	.	.	.	.	.	.	.	.	.	.
.	.	.	.	.	.	.	8D/	-ni-	-ni-	.	.	.	8a\	-ni-	-ni-	.	.	8ff#\	-ni-	-ni-	.	.	.	.	.	.	.	.	.	.	.	.	.	.	.
4c#\	3	.	4a 4e/	.	4ee\	.	4C#/	-a	-a	.	.	.	4a\	-a	-a	.	.	4ee\	-a	-a	.	.	.	4A/	.	4e\	.	4a/	.	4ee\	.	4ee\	.	4eee\	.
*	*	*	*	*	*	*	*	*	*	*	*	*	*	*	*	*	*	*	*	*	*	*	*	*	*	*	*	*	*	*	*	*custos:ff	*	*	*
!	!	!	!LO:LB:g=original	!	!	!	!	!	!	!	!	!	!	!	!	!	!	!	!	!	!	!	!	!	!	!	!	!	!	!	!	!LO:LB:g=original	!	!	!
=41	=41	=41	=41	=41	=41	=41	=41	=41	=41	=41	=41	=41	=41	=41	=41	=41	=41	=41	=41	=41	=41	=41	=41	=41	=41	=41	=41	=41	=41	=41	=41	=41	=41	=41	=41
!	!	!	!	!	!	!	!	!	!	!	!	!	!	!	!	!	!	!LO:SIC:s=(4ff#\	!	!	!	!	!	!	!	!	!	!	!	!	!	!	!	!	!
4d\	.	.	4a 4f#/	.	8ff#\L	.	(4D\	ſae-	sae-	.	.	2.ryy	(4a\	ſae-	sae-	.	.	4ff#\	ſae-	sae-	.	.	2.ryy	2d\	.	2f#\	.	4a/	.	4ff#\	.	4ff#\	.	2fff#\	.
.	.	.	.	.	8aa\	.	.	.	.	.	.	.	.	.	.	.	.	.	.	.	.	.	.	.	.	.	.	.	.	.	.	.	.	.	.
!	!	!	!	!	!	!	!	!	!	!	!	!	!	!	!	!	!	!LO:SIC:s=4dd\)	!	!	!	!	!	!	!	!	!	!	!	!	!	!	!	!	!
4D\	.	.	4a 4e/	.	8ff#\	.	4G\)	.	.	.	.	.	4g\)	.	.	.	.	4dd\	.	.	.	.	.	.	.	.	.	4a/	.	4ff#\	.	4gg\	.	.	.
.	.	.	.	.	8dd\	.	.	.	.	.	.	.	.	.	.	.	.	.	.	.	.	.	.	.	.	.	.	.	.	.	.	.	.	.	.
!	!	!	!	!	!	!	!	!	!	!	!	!	!LO:SIC:s=4e\	!	!	!	!	!	!	!	!	!	!	!	!	!	!	!	!	!	!	!	!	!	!
4A\	3	.	4a 4e/	.	8ee\	.	4A\	-cu-	-cu-	.	.	.	4e|\	-cu-	-cu-	.	.	8ee\L	-cu-	-cu-	.	.	.	4A/	.	4e\	.	4g/	.	4ee\	.	4ee\	.	4eee\	.
.	.	.	.	.	8cc#\J	.	.	.	.	.	.	.	.	.	.	.	.	8cc#\J	.	.	.	.	.	.	.	.	.	.	.	.	.	.	.	.	.
=42	=42	=42	=42	=42	=42	=42	=42	=42	=42	=42	=42	=42	=42	=42	=42	=42	=42	=42	=42	=42	=42	=42	=42	=42	=42	=42	=42	=42	=42	=42	=42	=42	=42	=42	=42
4D/	.	.	4a 4f#/	.	4dd\	.	2D\	-la	-la.	.	.	2.ryy	2f#\	-la	-la.	.	.	2.dd\	-la	-la.	.	.	2.ryy	2F#/	.	2d\	.	4f#/	.	4dd\	.	4ff#\	.	4ddd\	.
*	*	*	*	*	*	*	*	*	*	*	*	*	*	*	*	*	*	*	*	*	*	*	*	*	*	*	*	*	*	*	*	*	*	*X8va	*
!	!	!	!	!	!	!	!	!	!	!	!	!	!	!	!	!	!	!	!	!	!	!	!	!	!	!	!	!	!	!	!	!	!	!LO:LB:g=original	!
8D|/L	.	.	4r	.	4r	.	.	.	.	.	.	.	.	.	.	.	.	.	.	.	.	.	.	.	.	.	.	4r	.	4r	.	4r	.	4r	.
8Cn|/	.	.	.	.	.	.	.	.	.	.	.	.	.	.	.	.	.	.	.	.	.	.	.	.	.	.	.	.	.	.	.	.	.	.	.
8BB|/	.	.	4r	.	4r	.	4r	.	.	.	.	.	4r	.	.	.	.	.	.	.	.	.	.	4r	.	4r	.	4r	.	4r	.	4r	.	4r	.
8AA|/J	.	.	.	.	.	.	.	.	.	.	.	.	.	.	.	.	.	.	.	.	.	.	.	.	.	.	.	.	.	.	.	.	.	.	.
!LO:LB:g=original	!	!	!	!	!	!	!	!	!	!	!	!	!	!	!	!	!	!LO:LB:g=original	!	!	!	!	!	!	!	!	!	!	!	!	!	!	!	!	!
=43	=43	=43	=43	=43	=43	=43	=43	=43	=43	=43	=43	=43	=43	=43	=43	=43	=43	=43	=43	=43	=43	=43	=43	=43	=43	=43	=43	=43	=43	=43	=43	=43	=43	=43	=43
!!LO:TX:a:t= :mod=Solo
!	!	!	!	!	!	!	!LO:TX:a:t=24:mod=	!	!	!	!	!	!	!	!	!	!	!	!	!	!	!	!	!LO:TX:b:t=Pauſ.:mod=	!	!LO:TX:a:t=24:mod=	!	!LO:TX:b:t=Pauſ:mod=	!	!LO:TX:b:t=Pauſ.:mod=	!	!	!	!	!
!LO:TX:a:t=Solo.:mod=	!	!LO:DY:a:t=p.	!	!LO:DY:a:t=p.	!	!LO:DY:a:t=pp.	!LO:N:vis=00	!	!	!	!	!	!LO:N:vis=00	!	!	!	!	!LO:TX:a:t=Solo:mod=	!	!	!	!	!	!LO:TX:a:t=24:mod=	!	!LO:N:vis=00	!	!LO:TX:a:t=24:mod=	!	!LO:TX:a:t=24:mod=	!	!LO:N:vis=00	!	!LO:N:vis=00	!
4GG/	.	p	8b/L	p	8dd\L	pp	0.r	.	.	.	.	2.ryy	0.r	.	.	.	.	8dd\L	De-	De-	.	.	2.ryy	2.r	.	0.r	.	2.r	.	2.r	.	0.r	.	0.r	.
.	.	.	8g/J	.	8b\J	.	.	.	.	.	.	.	.	.	.	.	.	8b\J	.	.	.	.	.	.	.	.	.	.	.	.	.	.	.	.	.
4G\	.	.	4B/	.	4g/	.	.	.	.	.	.	.	.	.	.	.	.	4g\	-um	-um	.	.	.	.	.	.	.	.	.	.	.	.	.	.	.
4D\	.	.	4d/	.	4a/	.	.	.	.	.	.	.	.	.	.	.	.	4a\	de	de	.	.	.	.	.	.	.	.	.	.	.	.	.	.	.
=44	=44	=44	=44	=44	=44	=44	=44	=44	=44	=44	=44	=44	=44	=44	=44	=44	=44	=44	=44	=44	=44	=44	=44	=44	=44	=44	=44	=44	=44	=44	=44	=44	=44	=44	=44
!	!	!	!	!	!	!	!	!	!	!	!	!	!	!	!	!	!	!LO:SIC:s=(4.b\	!	!	!	!	!	!	!	!	!	!	!	!	!	!	!	!	!
4G\	.	.	4.g/	.	4.b\	.	.	.	.	.	.	2.ryy	.	.	.	.	.	4.b\	De-	De-	.	.	2.ryy	2.r	.	.	.	2.r	.	2.r	.	.	.	.	.
4GG/	.	.	.	.	.	.	.	.	.	.	.	.	.	.	.	.	.	.	.	.	.	.	.	.	.	.	.	.	.	.	.	.	.	.	.
!	!	!	!	!	!	!	!	!	!	!	!	!	!	!	!	!	!	!LO:SIC:s=8ccn\)	!	!	!	!	!	!	!	!	!	!	!	!	!	!	!	!	!
.	.	.	8a/	.	8ccn\	.	.	.	.	.	.	.	.	.	.	.	.	8ccn\	.	.	.	.	.	.	.	.	.	.	.	.	.	.	.	.	.
4r	.	.	4b/	.	4dd\	.	.	.	.	.	.	.	.	.	.	.	.	4dd\	-o	-o,	.	.	.	.	.	.	.	.	.	.	.	.	.	.	.
!	!	!	!	!	!LO:LB:g=original	!	!	!	!	!	!	!	!	!	!	!	!	!	!	!	!	!	!	!	!	!	!	!	!	!	!	!	!	!	!
=45	=45	=45	=45	=45	=45	=45	=45	=45	=45	=45	=45	=45	=45	=45	=45	=45	=45	=45	=45	=45	=45	=45	=45	=45	=45	=45	=45	=45	=45	=45	=45	=45	=45	=45	=45
!LO:SIC:v:s=4Cn/	!	!	!	!	!	!	!	!	!	!	!	!	!	!	!	!	!	!	!	!	!	!	!	!	!	!	!	!	!	!	!	!	!	!	!
4C#/	.	.	4ccn\	.	4ee\	.	.	.	.	.	.	2.ryy	.	.	.	.	.	4ee\	Lu-	lu-	.	.	2.ryy	2.r	.	.	.	2.r	.	2.r	.	.	.	.	.
4r	.	.	8a/L	.	8ccn/L	.	.	.	.	.	.	.	.	.	.	.	.	8ccn\L	-men	-men	.	.	.	.	.	.	.	.	.	.	.	.	.	.	.
.	.	.	8g/	.	8b/	.	.	.	.	.	.	.	.	.	.	.	.	8b\J	.	.	.	.	.	.	.	.	.	.	.	.	.	.	.	.	.
4C#X/	6:5	.	8f#/	.	8a/	.	.	.	.	.	.	.	.	.	.	.	.	8a\L	de	de	.	.	.	.	.	.	.	.	.	.	.	.	.	.	.
.	.	.	8e/J	.	8g/J	.	.	.	.	.	.	.	.	.	.	.	.	8g\J	.	.	.	.	.	.	.	.	.	.	.	.	.	.	.	.	.
=46	=46	=46	=46	=46	=46	=46	=46	=46	=46	=46	=46	=46	=46	=46	=46	=46	=46	=46	=46	=46	=46	=46	=46	=46	=46	=46	=46	=46	=46	=46	=46	=46	=46	=46	=46
!	!	!	!	!	!LO:SIC:s=8qg/	!	!	!	!	!	!	!	!	!	!	!	!	!	!	!	!	!	!	!	!	!	!	!	!	!	!	!	!	!	!
.	.	.	.	.	8qqg/	.	.	.	.	.	.	.	.	.	.	.	.	.	.	.	.	.	.	.	.	.	.	.	.	.	.	.	.	.	.
4D/	.	.	4.d/	.	4.f#/	.	.	.	.	.	.	2.ryy	.	.	.	.	.	4.f#/	lu-	lu-	.	.	2.ryy	2.r	.	.	.	2.r	.	2.r	.	.	.	.	.
4AA/	.	.	.	.	.	.	.	.	.	.	.	.	.	.	.	.	.	.	.	.	.	.	.	.	.	.	.	.	.	.	.	.	.	.	.
.	.	.	8c#X/	.	8e/	.	.	.	.	.	.	.	.	.	.	.	.	8e/	-mi-	-mi-	.	.	.	.	.	.	.	.	.	.	.	.	.	.	.
4DD/	.	.	4d/	.	4d/	.	.	.	.	.	.	.	.	.	.	.	.	4d/	-ne	-ne,	.	.	.	.	.	.	.	.	.	.	.	.	.	.	.
=47	=47	=47	=47	=47	=47	=47	=47	=47	=47	=47	=47	=47	=47	=47	=47	=47	=47	=47	=47	=47	=47	=47	=47	=47	=47	=47	=47	=47	=47	=47	=47	=47	=47	=47	=47
!	!	!	!	!	!	!	!LO:N:vis=00	!	!	!	!	!	!LO:N:vis=00	!	!	!	!	!	!	!	!	!	!	!	!	!LO:N:vis=00	!	!	!	!	!	!LO:N:vis=00	!	!LO:N:vis=00	!
4A\	n	.	8d/	.	2ccn/	.	0.r	.	.	.	.	2.ryy	0.r	.	.	.	.	2ccn\	De-	De-	.	.	2.ryy	2.r	.	0.r	.	2.r	.	2.r	.	0.r	.	0.r	.
.	.	.	4d/	.	.	.	.	.	.	.	.	.	.	.	.	.	.	.	.	.	.	.	.	.	.	.	.	.	.	.	.	.	.	.	.
4F#\	.	.	.	.	.	.	.	.	.	.	.	.	.	.	.	.	.	.	.	.	.	.	.	.	.	.	.	.	.	.	.	.	.	.	.
.	.	.	4d/	.	.	.	.	.	.	.	.	.	.	.	.	.	.	.	.	.	.	.	.	.	.	.	.	.	.	.	.	.	.	.	.
4D\	5	.	.	.	4a/	.	.	.	.	.	.	.	.	.	.	.	.	4a\	-um	-um	.	.	.	.	.	.	.	.	.	.	.	.	.	.	.
.	.	.	8d/	.	.	.	.	.	.	.	.	.	.	.	.	.	.	.	.	.	.	.	.	.	.	.	.	.	.	.	.	.	.	.	.
=48	=48	=48	=48	=48	=48	=48	=48	=48	=48	=48	=48	=48	=48	=48	=48	=48	=48	=48	=48	=48	=48	=48	=48	=48	=48	=48	=48	=48	=48	=48	=48	=48	=48	=48	=48
4G\	.	.	8d/	.	2b/	.	.	.	.	.	.	2.ryy	.	.	.	.	.	2b\	ve-	ve-	.	.	2.ryy	2.r	.	.	.	2.r	.	2.r	.	.	.	.	.
.	.	.	4d/	.	.	.	.	.	.	.	.	.	.	.	.	.	.	.	.	.	.	.	.	.	.	.	.	.	.	.	.	.	.	.	.
4GG/	.	.	.	.	.	.	.	.	.	.	.	.	.	.	.	.	.	.	.	.	.	.	.	.	.	.	.	.	.	.	.	.	.	.	.
.	.	.	4d/	.	.	.	.	.	.	.	.	.	.	.	.	.	.	.	.	.	.	.	.	.	.	.	.	.	.	.	.	.	.	.	.
4B\	6	.	.	.	4g/	.	.	.	.	.	.	.	.	.	.	.	.	4g\	-rum	-rum,	.	.	.	.	.	.	.	.	.	.	.	.	.	.	.
.	.	.	8d/	.	.	.	.	.	.	.	.	.	.	.	.	.	.	.	.	.	.	.	.	.	.	.	.	.	.	.	.	.	.	.	.
=49	=49	=49	=49	=49	=49	=49	=49	=49	=49	=49	=49	=49	=49	=49	=49	=49	=49	=49	=49	=49	=49	=49	=49	=49	=49	=49	=49	=49	=49	=49	=49	=49	=49	=49	=49
*	*	*	*	*	*	*	*	*	*	*	*	*	*	*	*	*	*	*	*ij	*ij	*	*	*	*	*	*	*	*	*	*	*	*	*	*	*
4A\	n	.	8d/	.	2ccn\	.	.	.	.	.	.	2.ryy	.	.	.	.	.	2ccn\	De-	De-	.	.	2.ryy	2.r	.	.	.	2.r	.	2.r	.	.	.	.	.
.	.	.	4d/	.	.	.	.	.	.	.	.	.	.	.	.	.	.	.	.	.	.	.	.	.	.	.	.	.	.	.	.	.	.	.	.
4F#\	.	.	.	.	.	.	.	.	.	.	.	.	.	.	.	.	.	.	.	.	.	.	.	.	.	.	.	.	.	.	.	.	.	.	.
.	.	.	4d/	.	.	.	.	.	.	.	.	.	.	.	.	.	.	.	.	.	.	.	.	.	.	.	.	.	.	.	.	.	.	.	.
4D\	.	.	.	.	4a/	.	.	.	.	.	.	.	.	.	.	.	.	4a\	-um	-um	.	.	.	.	.	.	.	.	.	.	.	.	.	.	.
.	.	.	8d/	.	.	.	.	.	.	.	.	.	.	.	.	.	.	.	.	.	.	.	.	.	.	.	.	.	.	.	.	.	.	.	.
=50	=50	=50	=50	=50	=50	=50	=50	=50	=50	=50	=50	=50	=50	=50	=50	=50	=50	=50	=50	=50	=50	=50	=50	=50	=50	=50	=50	=50	=50	=50	=50	=50	=50	=50	=50
4G\	3	.	8g/	.	4b\	.	.	.	.	.	.	2.ryy	.	.	.	.	.	4b\	ve-	ve-	.	.	2.ryy	2.r	.	.	.	2.r	.	2.r	.	.	.	.	.
.	.	.	4g/	.	.	.	.	.	.	.	.	.	.	.	.	.	.	.	.	.	.	.	.	.	.	.	.	.	.	.	.	.	.	.	.
!	!	!	!	!	!LO:SIC:v:s=4cct\	!	!	!	!	!	!	!	!	!	!	!	!	!LO:SIC:v:s=4ccn\	!	!	!	!	!	!	!	!	!	!	!	!	!	!	!	!	!
4A\	3	.	.	.	4cc#t\	.	.	.	.	.	.	.	.	.	.	.	.	4cc#\	-rum	-rum	.	.	.	.	.	.	.	.	.	.	.	.	.	.	.
.	.	.	4g/	.	.	.	.	.	.	.	.	.	.	.	.	.	.	.	.	.	.	.	.	.	.	.	.	.	.	.	.	.	.	.	.
*	*	*	*	*	*	*	*	*	*	*	*	*	*	*	*	*	*	*	*Xij	*Xij	*	*	*	*	*	*	*	*	*	*	*	*	*	*	*
4B\	3	.	.	.	4ddny\	.	.	.	.	.	.	.	.	.	.	.	.	4dd\	de	de	.	.	.	.	.	.	.	.	.	.	.	.	.	.	.
.	.	.	8g/	.	.	.	.	.	.	.	.	.	.	.	.	.	.	.	.	.	.	.	.	.	.	.	.	.	.	.	.	.	.	.	.
=51	=51	=51	=51	=51	=51	=51	=51	=51	=51	=51	=51	=51	=51	=51	=51	=51	=51	=51	=51	=51	=51	=51	=51	=51	=51	=51	=51	=51	=51	=51	=51	=51	=51	=51	=51
.	.	.	.	.	8qff#	.	.	.	.	.	.	.	.	.	.	.	.	.	.	.	.	.	.	.	.	.	.	.	.	.	.	.	.	.	.
!	!	!	!	!	!	!	!LO:N:vis=00	!	!	!	!	!	!LO:N:vis=0	!	!	!	!	!	!	!	!	!	!	!	!	!LO:N:vis=00	!	!	!	!	!	!LO:N:vis=00	!	!LO:N:vis=00	!
4cn\	.	.	4g/	.	8ee\L	.	0.r	.	.	.	.	2.ryy	1.r	.	.	.	.	8ee\	De-	De-	.	.	2.ryy	2.r	.	0.r	.	2.r	.	2.r	.	0.r	.	0.r	.
!	!	!	!	!	!	!	!	!	!	!	!	!	!	!	!	!	!	!LO:SIC:v:s=8ccn\	!	!	!	!	!	!	!	!	!	!	!	!	!	!	!	!	!
.	.	.	.	.	16dd\L	.	.	.	.	.	.	.	.	.	.	.	.	8cc#\	-o	-o	.	.	.	.	.	.	.	.	.	.	.	.	.	.	.
!	!	!	!	!	!LO:SIC:v:s=16cc\JJ	!	!	!	!	!	!	!	!	!	!	!	!	!	!	!	!	!	!	!	!	!	!	!	!	!	!	!	!	!	!
.	.	.	.	.	16cc#\JJ	.	.	.	.	.	.	.	.	.	.	.	.	.	.	.	.	.	.	.	.	.	.	.	.	.	.	.	.	.	.
4d\	4	.	4g/	.	4b/	.	.	.	.	.	.	.	.	.	.	.	.	(4b\	Ve-	ve-	.	.	.	.	.	.	.	.	.	.	.	.	.	.	.
4D\	3	.	4f#/	.	4a/	.	.	.	.	.	.	.	.	.	.	.	.	4a\)	.	.	.	.	.	.	.	.	.	.	.	.	.	.	.	.	.
=52	=52	=52	=52	=52	=52	=52	=52	=52	=52	=52	=52	=52	=52	=52	=52	=52	=52	=52	=52	=52	=52	=52	=52	=52	=52	=52	=52	=52	=52	=52	=52	=52	=52	=52	=52
4G\	.	.	2g/	.	2g/	.	.	.	.	.	.	2.ryy	.	.	.	.	.	2g\	-ro	-ro.	.	.	2.ryy	2.r	.	.	.	2.r	.	2.r	.	.	.	.	.
8D/L	.	.	.	.	.	.	.	.	.	.	.	.	.	.	.	.	.	.	.	.	.	.	.	.	.	.	.	.	.	.	.	.	.	.	.
!LO:SIC:v:s=8Cn/	!	!	!	!	!	!	!	!	!	!	!	!	!	!	!	!	!	!	!	!	!	!	!	!	!	!	!	!	!	!	!	!	!	!	!
8C#/	.	.	.	.	.	.	.	.	.	.	.	.	.	.	.	.	.	.	.	.	.	.	.	.	.	.	.	.	.	.	.	.	.	.	.
8BB/	.	.	4r	.	4r	.	.	.	.	.	.	.	.	.	.	.	.	4r	.	.	.	.	.	.	.	.	.	.	.	.	.	.	.	.	.
8AA/J	.	.	.	.	.	.	.	.	.	.	.	.	.	.	.	.	.	.	.	.	.	.	.	.	.	.	.	.	.	.	.	.	.	.	.
!	!	!	!	!	!	!	!	!	!	!	!	!	!LO:TX:a:rj:t=Vi:mod=	!	!	!	!	!	!	!	!	!	!	!	!	!	!	!	!	!	!	!	!	!	!
!	!	!	!	!	!	!	!	!	!	!	!	!	!LO:LB:g=original	!	!	!	!	!	!	!	!	!	!	!	!	!	!	!	!	!	!	!	!	!	!
=53	=53	=53	=53	=53	=53	=53	=53	=53	=53	=53	=53	=53	=53	=53	=53	=53	=53	=53	=53	=53	=53	=53	=53	=53	=53	=53	=53	=53	=53	=53	=53	=53	=53	=53	=53
!	!	!	!	!	!	!	!	!	!	!	!	!	!LO:TX:a:t=de:mod=	!	!	!	!	!	!	!	!	!	!	!	!	!	!	!	!	!	!	!	!	!	!
4GG/	.	.	4.b/	.	4.dd\	.	.	.	.	.	.	2.ryy	4.b\	ge-	Ge-	.	.	4.dd\	Ge-	Ge-	.	.	2.ryy	2.r	.	.	.	2.r	.	2.r	.	.	.	.	.
4G\	.	.	.	.	.	.	.	.	.	.	.	.	.	.	.	.	.	.	.	.	.	.	.	.	.	.	.	.	.	.	.	.	.	.	.
.	.	.	8a/	.	8ccn\	.	.	.	.	.	.	.	8a\	-ni-	-ni-	.	.	8ccn\	-ni-	-ni-	.	.	.	.	.	.	.	.	.	.	.	.	.	.	.
4r	.	.	4g/	.	4b\	.	.	.	.	.	.	.	4g\	-tum	-tum,	.	.	4b\	-tum	-tum,	.	.	.	.	.	.	.	.	.	.	.	.	.	.	.
=54	=54	=54	=54	=54	=54	=54	=54	=54	=54	=54	=54	=54	=54	=54	=54	=54	=54	=54	=54	=54	=54	=54	=54	=54	=54	=54	=54	=54	=54	=54	=54	=54	=54	=54	=54
!LO:SIC:v:s=4Cn/	!	!	!	!	!	!	!	!	!	!	!	!	!	!	!	!	!	!	!	!	!	!	!	!	!	!	!	!	!	!	!	!	!	!	!
4C#/	3_	.	4ccn\	.	4ee\	.	.	.	.	.	.	2.ryy	4ccn\	n(on)	n(on)	.	.	4ee\	n(on)	n(on)	.	.	2.ryy	2.r	.	.	.	2.r	.	2.r	.	.	.	.	.
!LO:SIC:v:s=4cn\	!	!	!	!	!	!	!	!	!	!	!	!	!	!	!	!	!	!	!	!	!	!	!	!	!	!	!	!	!	!	!	!	!	!	!
4c#\	.	.	8cc\L	.	8ee\L	.	.	.	.	.	.	.	2cc\	f(a)-	f(a)-	.	.	2ee\	fac-	fa-	.	.	.	.	.	.	.	.	.	.	.	.	.	.	.
.	.	.	8dd\	.	8ff#\	.	.	.	.	.	.	.	.	.	.	.	.	.	.	.	.	.	.	.	.	.	.	.	.	.	.	.	.	.	.
!LO:SIC:v:s=4C/	!	!	!	!	!	!	!	!	!	!	!	!	!	!	!	!	!	!	!	!	!	!	!	!	!	!	!	!	!	!	!	!	!	!	!
4C#/	.	.	8ee\	.	8gg\	.	.	.	.	.	.	.	.	.	.	.	.	.	.	.	.	.	.	.	.	.	.	.	.	.	.	.	.	.	.
.	.	.	8cc\J	.	8ee\J	.	.	.	.	.	.	.	.	.	.	.	.	.	.	.	.	.	.	.	.	.	.	.	.	.	.	.	.	.	.
*	*	*	*custos:cc	*	*	*	*	*	*	*	*	*	*	*	*	*	*	*	*	*	*	*	*	*	*	*	*	*	*	*	*	*	*	*	*
!	!	!	!LO:LB:g=original	!	!	!	!	!	!	!	!	!	!	!	!	!	!	!	!	!	!	!	!	!	!	!	!	!	!	!	!	!	!	!	!
=55	=55	=55	=55	=55	=55	=55	=55	=55	=55	=55	=55	=55	=55	=55	=55	=55	=55	=55	=55	=55	=55	=55	=55	=55	=55	=55	=55	=55	=55	=55	=55	=55	=55	=55	=55
!	!	!	!LO:SIC:s=8qcc#	!	!	!	!	!	!	!	!	!	!	!	!	!	!	!LO:SIC:s=8qee/	!	!	!	!	!	!	!	!	!	!	!	!	!	!	!	!	!
.	X	.	8qqcc#	.	8qee/	.	.	.	.	.	.	.	.	.	.	.	.	8qqee/	.	.	.	.	.	.	.	.	.	.	.	.	.	.	.	.	.
!	!	!	!	!	!	!	!LO:N:vis=00	!	!	!	!	!	!	!	!	!	!	!	!	!	!	!	!	!	!	!LO:N:vis=00	!	!	!	!	!	!LO:N:vis=00	!	!LO:N:vis=00	!
4G\	.	.	2b\	.	2dd\	.	0.r	.	.	.	.	2.ryy	2b\	-ctum	-ctum,	.	.	2.dd\	-tum	-ctum,	.	.	2.ryy	2.r	.	0.r	.	2.r	.	2.r	.	0.r	.	0.r	.
8D/L	.	.	.	.	.	.	.	.	.	.	.	.	.	.	.	.	.	.	.	.	.	.	.	.	.	.	.	.	.	.	.	.	.	.	.
8BB/J	.	.	.	.	.	.	.	.	.	.	.	.	.	.	.	.	.	.	.	.	.	.	.	.	.	.	.	.	.	.	.	.	.	.	.
4GG/	.	.	4r	.	4r	.	.	.	.	.	.	.	4r	.	.	.	.	.	.	.	.	.	.	.	.	.	.	.	.	.	.	.	.	.	.
!	!	!	!	!	!	!	!	!	!	!	!	!	!	!	!	!	!	!LO:LB:g=original	!	!	!	!	!	!	!	!	!	!	!	!	!	!	!	!	!
!	!	!	!	!	!	!	!	!	!	!	!	!	!	!	!	!	!	!LO:MO:mod==56	!LO:MO:mod==56	!LO:MO:mod==56	!	!	!	!	!	!	!	!	!	!	!	!	!	!	!
=56	=56	=56	=56	=56	=56	=56	=56	=56	=56	=56	=56	=56	=56	=56	=56	=56	=56	=56-	=56-	=56-	=56	=56	=56	=56	=56	=56	=56	=56	=56	=56	=56	=56	=56	=56	=56
!	!	!	!	!	!LO:TX:a:t=h:mod=	!	!	!	!	!	!	!	!	!	!	!	!	!	!	!	!	!	!	!	!	!	!	!	!	!	!	!	!	!	!
4GG/	.	.	2g/	.	2b/	.	.	.	.	.	.	2.ryy	2g\	Con-	con-	.	.	2b\	Con-	con-	.	.	2.ryy	2.r	.	.	.	2.r	.	2.r	.	.	.	.	.
4BB/	.	.	.	.	.	.	.	.	.	.	.	.	.	.	.	.	.	.	.	.	.	.	.	.	.	.	.	.	.	.	.	.	.	.	.
4D\	3	.	4f#/	.	4a/	.	.	.	.	.	.	.	4f#\	-ſub-	-sub-	.	.	4a\	-ſub-	-sub-	.	.	.	.	.	.	.	.	.	.	.	.	.	.	.
=57	=57	=57	=57	=57	=57	=57	=57	=57	=57	=57	=57	=57	=57	=57	=57	=57	=57	=57	=57	=57	=57	=57	=57	=57	=57	=57	=57	=57	=57	=57	=57	=57	=57	=57	=57
4G\	.	.	4.g/	.	4.b/	.	.	.	.	.	.	2.ryy	4.g\	-ſtan-	-stan-	.	.	4.b\	-ſtan-	-stan-	.	.	2.ryy	2.r	.	.	.	2.r	.	2.r	.	.	.	.	.
4GG/	.	.	.	.	.	.	.	.	.	.	.	.	.	.	.	.	.	.	.	.	.	.	.	.	.	.	.	.	.	.	.	.	.	.	.
.	.	.	8f#/	.	8a/	.	.	.	.	.	.	.	8f#\	-ti-	-ti-	.	.	8a\	-ti-	-ti-	.	.	.	.	.	.	.	.	.	.	.	.	.	.	.
4G\	.	.	4g/	.	4b/	.	.	.	.	.	.	.	4g\	-a-	-a-	.	.	4b\	-a-	-a-	.	.	.	.	.	.	.	.	.	.	.	.	.	.	.
*custos:F#	*	*	*	*	*	*	*	*	*	*	*	*	*	*	*	*	*	*	*	*	*	*	*	*	*	*	*	*	*	*	*	*	*	*	*
!LO:LB:g=original	!	!	!	!	!LO:LB:g=original	!	!	!	!	!	!	!	!	!	!	!	!	!	!	!	!	!	!	!	!	!	!	!	!	!	!	!	!	!	!
=58	=58	=58	=58	=58	=58	=58	=58	=58	=58	=58	=58	=58	=58	=58	=58	=58	=58	=58	=58	=58	=58	=58	=58	=58	=58	=58	=58	=58	=58	=58	=58	=58	=58	=58	=58
.	.	.	.	.	8qdd/	.	.	.	.	.	.	.	.	.	.	.	.	.	.	.	.	.	.	.	.	.	.	.	.	.	.	.	.	.	.
4F#\	6 n5	.	4a/	.	4ccn\	.	.	.	.	.	.	2.ryy	4a\	-lem	-lem	.	.	4ccn\	-lem	-lem	.	.	2.ryy	2.r	.	.	.	2.r	.	2.r	.	.	.	.	.
!	!	!	!LO:SIC:s=8qa/	!	!	!	!	!	!	!	!	!	!	!	!	!	!	!	!	!	!	!	!	!	!	!	!	!	!	!	!	!	!	!	!
.	.	.	16qqa/	.	8qcc/	.	.	.	.	.	.	.	.	.	.	.	.	8qcc/	.	.	.	.	.	.	.	.	.	.	.	.	.	.	.	.	.
4G\	.	.	2g/	.	2b\	.	.	.	.	.	.	.	2g\	Pa-	Pa-	.	.	2b\	Pa-	Pa-	.	.	.	.	.	.	.	.	.	.	.	.	.	.	.
4GG/	.	.	.	.	.	.	.	.	.	.	.	.	.	.	.	.	.	.	.	.	.	.	.	.	.	.	.	.	.	.	.	.	.	.	.
=59	=59	=59	=59	=59	=59	=59	=59	=59	=59	=59	=59	=59	=59	=59	=59	=59	=59	=59	=59	=59	=59	=59	=59	=59	=59	=59	=59	=59	=59	=59	=59	=59	=59	=59	=59
!	!	!	!	!	!	!	!LO:N:vis=00	!	!	!	!	!	!	!	!	!	!	!	!	!	!	!	!	!	!	!LO:N:vis=00	!	!	!	!	!	!LO:N:vis=00	!	!LO:N:vis=00	!
4D\	.	.	4f#/	.	4a/	.	0.r	.	.	.	.	2.ryy	2f#\	-tri	-tri:	.	.	2a\	-tri	-tri:	.	.	2.ryy	2.r	.	0.r	.	2.r	.	2.r	.	0.r	.	0.r	.
4F#\	6	.	4r	.	4r	.	.	.	.	.	.	.	.	.	.	.	.	.	.	.	.	.	.	.	.	.	.	.	.	.	.	.	.	.	.
4A\	.	.	4r	.	4r	.	.	.	.	.	.	.	4r	.	.	.	.	4r	.	.	.	.	.	.	.	.	.	.	.	.	.	.	.	.	.
=60	=60	=60	=60	=60	=60	=60	=60	=60	=60	=60	=60	=60	=60	=60	=60	=60	=60	=60	=60	=60	=60	=60	=60	=60	=60	=60	=60	=60	=60	=60	=60	=60	=60	=60	=60
4d\	.	.	2f#/	.	2dd\	.	.	.	.	.	.	2.ryy	2f#\	p(er)	p(er)	.	.	2dd\	p(er)	p(er)	.	.	2.ryy	2.r	.	.	.	2.r	.	2.r	.	.	.	.	.
4D\	.	.	.	.	.	.	.	.	.	.	.	.	.	.	.	.	.	.	.	.	.	.	.	.	.	.	.	.	.	.	.	.	.	.	.
4A\	#	.	8g/L	.	8ee\L	.	.	.	.	.	.	.	8g\L	quem	quem	.	.	8ee\L	quem	quem	.	.	.	.	.	.	.	.	.	.	.	.	.	.	.
!	!	!	!	!	!LO:SIC:s=8cc#\J	!	!	!	!	!	!	!	!	!	!	!	!	!LO:SIC:s=8cc#\J	!	!	!	!	!	!	!	!	!	!	!	!	!	!	!	!	!
.	.	.	8e/J	.	8cc#X\J	.	.	.	.	.	.	.	8e\J	.	.	.	.	8cc#X\J	.	.	.	.	.	.	.	.	.	.	.	.	.	.	.	.	.
=61	=61	=61	=61	=61	=61	=61	=61	=61	=61	=61	=61	=61	=61	=61	=61	=61	=61	=61	=61	=61	=61	=61	=61	=61	=61	=61	=61	=61	=61	=61	=61	=61	=61	=61	=61
4D\	.	.	4.f#/	.	4.dd\	.	.	.	.	.	.	2.ryy	4.f#\	Om-	om-	.	.	4.dd\	om-	om-	.	.	2.ryy	2.r	.	.	.	2.r	.	2.r	.	.	.	.	.
4F#\	6	.	.	.	.	.	.	.	.	.	.	.	.	.	.	.	.	.	.	.	.	.	.	.	.	.	.	.	.	.	.	.	.	.	.
.	.	.	8f#/	.	8dd\	.	.	.	.	.	.	.	8f#\	-ni-	-ni-	.	.	8dd\	-ni-	-ni-	.	.	.	.	.	.	.	.	.	.	.	.	.	.	.
!	!	!	!	!	!	!	!	!	!	!	!	!	!	!	!	!	!	!LO:SIC:s=4cc#\	!	!	!	!	!	!	!	!	!	!	!	!	!	!	!	!	!
4A\	#	.	4e/	.	4cc#\	.	.	.	.	.	.	.	4e\	-a	-a,	.	.	4cc#X\	-a	-a,	.	.	.	.	.	.	.	.	.	.	.	.	.	.	.
=62	=62	=62	=62	=62	=62	=62	=62	=62	=62	=62	=62	=62	=62	=62	=62	=62	=62	=62	=62	=62	=62	=62	=62	=62	=62	=62	=62	=62	=62	=62	=62	=62	=62	=62	=62
*	*	*	*	*	*	*	*	*	*	*	*	*	*	*	*	*	*	*	*ij	*ij	*	*	*	*	*	*	*	*	*	*	*	*	*	*	*
!	!	!	!	!	!	!	!	!	!	!	!	!	!LO:SIC:s=2f#\	!	!	!	!	!	!	!	!	!	!	!	!	!	!	!	!	!	!	!	!	!	!
4d\	.	.	2f#/	.	2dd\	.	.	.	.	.	.	2.ryy	2f#\yy	p(er)	p(er)	.	.	2dd\	per	per	.	.	2.ryy	2.r	.	.	.	2.r	.	2.r	.	.	.	.	.
4D\	.	.	.	.	.	.	.	.	.	.	.	.	.	.	.	.	.	.	.	.	.	.	.	.	.	.	.	.	.	.	.	.	.	.	.
!	!	!	!	!	!	!	!	!	!	!	!	!	!LO:SIC:s=8g\L	!	!	!	!	!	!	!	!	!	!	!	!	!	!	!	!	!	!	!	!	!	!
4A\	#	.	8g/L	.	8ee\L	.	.	.	.	.	.	.	8g\Lyy	quem	quem	.	.	8ee\L	quem	quem	.	.	.	.	.	.	.	.	.	.	.	.	.	.	.
!	!	!	!	!	!LO:SIC:s=8cc#\J	!	!	!	!	!	!	!	!LO:SIC:s=8e\J	!	!	!	!	!LO:SIC:s=8cc#\J	!	!	!	!	!	!	!	!	!	!	!	!	!	!	!	!	!
.	.	.	8e/J	.	8cc#X\J	.	.	.	.	.	.	.	8e\Jyy	.	.	.	.	8cc#X\J	.	.	.	.	.	.	.	.	.	.	.	.	.	.	.	.	.
=63	=63	=63	=63	=63	=63	=63	=63	=63	=63	=63	=63	=63	=63	=63	=63	=63	=63	=63	=63	=63	=63	=63	=63	=63	=63	=63	=63	=63	=63	=63	=63	=63	=63	=63	=63
!	!	!	!	!	!	!	!LO:N:vis=00	!	!	!	!	!	!LO:SIC:s=4.f#\	!	!	!	!	!	!	!	!	!	!	!	!	!LO:N:vis=00	!	!	!	!	!	!LO:N:vis=00	!	!LO:N:vis=00	!
4D\	.	.	4.f#/	.	4.dd\	.	0.r	.	.	.	.	2.ryy	4.f#\yy	Om-	om-	.	.	4.dd\	om-	om-	.	.	2.ryy	2.r	.	0.r	.	2.r	.	2.r	.	0.r	.	0.r	.
4F#\	6	.	.	.	.	.	.	.	.	.	.	.	.	.	.	.	.	.	.	.	.	.	.	.	.	.	.	.	.	.	.	.	.	.	.
!	!	!	!	!	!	!	!	!	!	!	!	!	!LO:SIC:s=8f#\	!	!	!	!	!	!	!	!	!	!	!	!	!	!	!	!	!	!	!	!	!	!
.	.	.	8f#/	.	8dd\	.	.	.	.	.	.	.	8f#\yy	-ni-	-ni-	.	.	8dd\	-ni-	-ni-	.	.	.	.	.	.	.	.	.	.	.	.	.	.	.
!	!	!	!	!	!LO:SIC:s=4cc#\	!	!	!	!	!	!	!	!LO:SIC:s=4e\	!	!	!	!	!	!	!	!	!	!	!	!	!	!	!	!	!	!	!	!	!	!
4A\	#	.	4e/	.	4cc#X\	.	.	.	.	.	.	.	4e\yy	-a	-a,	.	.	4cc#\	-a	-a,	.	.	.	.	.	.	.	.	.	.	.	.	.	.	.
*	*	*	*	*	*	*	*	*	*	*	*	*	*	*	*	*	*	*	*Xij	*Xij	*	*	*	*	*	*	*	*	*	*	*	*	*	*	*
=64	=64	=64	=64	=64	=64	=64	=64	=64	=64	=64	=64	=64	=64	=64	=64	=64	=64	=64	=64	=64	=64	=64	=64	=64	=64	=64	=64	=64	=64	=64	=64	=64	=64	=64	=64
4D\	.	.	4f#/	.	4.dd\	.	.	.	.	.	.	2.ryy	4f#\	Om-	om-	.	.	4.dd\	om-	om-	.	.	2.ryy	2.r	.	.	.	2.r	.	2.r	.	.	.	.	.
4E\	7	.	4g/	.	.	.	.	.	.	.	.	.	4g\	-ni-	-ni-	.	.	.	.	.	.	.	.	.	.	.	.	.	.	.	.	.	.	.	.
.	.	.	.	.	8dd\	.	.	.	.	.	.	.	.	.	.	.	.	8dd\	-ni-	-ni-	.	.	.	.	.	.	.	.	.	.	.	.	.	.	.
4F#\	6 n5	.	4a/	.	4ccn\	.	.	.	.	.	.	.	4a\	-a	-a	.	.	4ccn\	-a	-a	.	.	.	.	.	.	.	.	.	.	.	.	.	.	.
=65	=65	=65	=65	=65	=65	=65	=65	=65	=65	=65	=65	=65	=65	=65	=65	=65	=65	=65	=65	=65	=65	=65	=65	=65	=65	=65	=65	=65	=65	=65	=65	=65	=65	=65	=65
!	!	!	!	!	!	!	!	!	!	!	!	!	!	!	!	!	!	!LO:SIC:s=(8b\L	!	!	!	!	!	!	!	!	!	!	!	!	!	!	!	!	!
4G\	.	.	4d/	.	4b/	.	.	.	.	.	.	2.ryy	(4g\	fa-	fa-	.	.	8b\L	fa-	fa-	.	.	2.ryy	2.r	.	.	.	2.r	.	2.r	.	.	.	.	.
.	.	.	.	.	.	.	.	.	.	.	.	.	.	.	.	.	.	16a\L	.	.	.	.	.	.	.	.	.	.	.	.	.	.	.	.	.
.	.	.	.	.	.	.	.	.	.	.	.	.	.	.	.	.	.	16b\JJ	.	.	.	.	.	.	.	.	.	.	.	.	.	.	.	.	.
!	!	!	!	!	!LO:SIC:v:s=4ccn/	!	!	!	!	!	!	!	!	!	!	!	!	!LO:SIC:v:s=4ccn\)	!	!	!	!	!	!	!	!	!	!	!	!	!	!	!	!	!
4Cn/	6	.	4e/	.	4cc#/	.	.	.	.	.	.	.	4a\)	.	.	.	.	4cc#\	.	.	.	.	.	.	.	.	.	.	.	.	.	.	.	.	.
4D/	3	.	4cn/	.	4a/	.	.	.	.	.	.	.	4f#\	-cta	-cta	.	.	4a\	-cta	-cta	.	.	.	.	.	.	.	.	.	.	.	.	.	.	.
=66	=66	=66	=66	=66	=66	=66	=66	=66	=66	=66	=66	=66	=66	=66	=66	=66	=66	=66	=66	=66	=66	=66	=66	=66	=66	=66	=66	=66	=66	=66	=66	=66	=66	=66	=66
8G'\L	.	.	4B/	.	2g/	.	.	.	.	.	.	2.ryy	2g\	ſunt.	sunt.	.	.	2g\	ſunt	sunt.	.	.	2.ryy	2.r	.	.	.	2.r	.	2.r	.	.	.	.	.
8B'\	.	.	.	.	.	.	.	.	.	.	.	.	.	.	.	.	.	.	.	.	.	.	.	.	.	.	.	.	.	.	.	.	.	.	.
8A'\	.	.	4r	.	.	.	.	.	.	.	.	.	.	.	.	.	.	.	.	.	.	.	.	.	.	.	.	.	.	.	.	.	.	.	.
8G'\	.	.	.	.	.	.	.	.	.	.	.	.	.	.	.	.	.	.	.	.	.	.	.	.	.	.	.	.	.	.	.	.	.	.	.
!	!	!	!	!	!	!	!	!	!	!	!	!	!LO:TX:a:t=Retro:mod=	!	!	!	!	!	!	!	!	!	!	!	!	!	!	!	!	!	!	!	!	!	!
8F#'\	.	.	4r	.	4r	.	.	.	.	.	.	.	4r	.	.	.	.	4r	.	.	.	.	.	.	.	.	.	.	.	.	.	.	.	.	.
8E'\J	.	.	.	.	.	.	.	.	.	.	.	.	.	.	.	.	.	.	.	.	.	.	.	.	.	.	.	.	.	.	.	.	.	.	.
!	!	!	!	!	!	!	!	!	!	!	!	!	!LO:LB:g=original	!	!	!	!	!	!	!	!	!	!	!	!	!	!	!	!	!	!	!	!	!	!
=67	=67	=67	=67	=67	=67	=67	=67	=67	=67	=67	=67	=67	=67	=67	=67	=67	=67	=67	=67	=67	=67	=67	=67	=67	=67	=67	=67	=67	=67	=67	=67	=67	=67	=67	=67
*	*	*	*	*	*	*	*	*	*	*	*	*	*	*	*	*	*	*	*	*	*	*	*	*	*	*	*	*	*	*	*	*	*	*8va	*
!!LO:TX:a:t= :mod=Tutti
!	!	!	!	!	!	!	!	!	!	!	!	!	!	!	!	!	!	!	!	!	!	!	!	!	!	!	!	!	!LO:MO:null:mod=!LO&colon;DY&colon;ed=brack	!	!	!	!LO:MO:null:mod=!LO&colon;DY&colon;ed=brack	!	!LO:MO:null:mod=!LO&colon;DY&colon;ed=brack
!	!	!	!	!	!	!	!	!	!	!	!	!	!	!	!	!	!	!	!	!	!	!	!	!	!	!	!	!	!	!	!	!	!	!	!
!LO:TX:a:t=Tutti:mod=	!	!LO:DY:a:t=ff.	!	!LO:DY:a:t=ffor&colon;	!	!LO:DY:a:t=ffor&colon;	!	!	!	!	!LO:DY:ed=brack	!	!	!	!	!	!LO:DY:ed=brack	!	!	!	!LO:DY:a:rj:t=ffor&colon;	!LO:DY:a:rj:t=ffor&colon;	!	!	!	!	!	!	!LO:MO:null:mod=f	!	!LO:DY:a:t=f.	!	!LO:MO:null:mod=f	!	!LO:MO:null:mod=f
4D\	.	ff	4a 4f#/	ff	8dd\L	ff	2D/	Qui	Qui,	.	ff	2.ryy	2f#\	Qui	Qui,	.	ff	2dd\	Qui	Qui,	ff	ff	2.ryy	2F#/	.	2d\	.	2f#/	.	2dd\	f	2ff#\	.	2ddd\	.
!	!	!	!	!	!LO:SIC:s=8cc#\J	!	!	!	!	!	!	!	!	!	!	!	!	!	!	!	!	!	!	!	!	!	!	!	!	!	!	!	!	!	!
.	.	.	.	.	8cc#X\J	.	.	.	.	.	.	.	.	.	.	.	.	.	.	.	.	.	.	.	.	.	.	.	.	.	.	.	.	.	.
4D\	.	.	4a 4f#/	.	4dd\	.	.	.	.	.	.	.	.	.	.	.	.	.	.	.	.	.	.	.	.	.	.	.	.	.	.	.	.	.	.
4C#\	3	.	4a 4e/	.	4ee\	.	4C#/	qui	qui	.	.	.	4a\	qui	qui	.	.	4ee\	qui	qui	.	.	.	4A/	.	4e\	.	4a/	.	4ee\	.	4ee\	.	4eee\	.
!	!	!	!	!	!	!	!	!	!	!	!	!	!	!	!	!	!	!LO:LB:g=original	!	!	!	!	!	!	!	!	!	!	!	!	!	!	!	!	!
=68	=68	=68	=68	=68	=68	=68	=68	=68	=68	=68	=68	=68	=68	=68	=68	=68	=68	=68	=68	=68	=68	=68	=68	=68	=68	=68	=68	=68	=68	=68	=68	=68	=68	=68	=68
4D\	.	.	4a 4f#/	.	2ff#\	.	2D/	pro-	pro-	.	.	2.ryy	2a\	p(ro)-	p(ro)-	.	.	2ff#\	p(ro)-	p(ro)-	.	.	2.ryy	2d\	.	2f#\	.	2a/	.	2ff#\	.	2ff#\	.	2fff#\	.
4d\	.	.	4a 4f#/	.	.	.	.	.	.	.	.	.	.	.	.	.	.	.	.	.	.	.	.	.	.	.	.	.	.	.	.	.	.	.	.
!	!	!	!	!	!	!	!	!	!	!	!	!	!	!	!	!	!	!	!	!	!	!	!	!	!	!	!	!	!	!LO:TX:t=P:problem=fragment nieczytelny	!	!	!	!	!
4c#\	6	.	4a 4e/	.	4ee\	.	4C#/	-pter	-pter	.	.	.	4a\	-pter	-pter	.	.	4ee\	-pter	-pter	.	.	.	4A/	.	4e\	.	4a/	.	4ryy	.	4ee\	.	4eee\	.
!	!	!	!	!	!	!	!	!	!	!	!	!	!	!	!	!	!	!	!	!	!	!	!	!	!	!	!	!	!	!LO:LB:g=original	!	!	!	!	!
=69	=69	=69	=69	=69	=69	=69	=69	=69	=69	=69	=69	=69	=69	=69	=69	=69	=69	=69	=69	=69	=69	=69	=69	=69	=69	=69	=69	=69	=69	=69	=69	=69	=69	=69	=69
4d\	.	.	8a/L	.	8ff#\L	.	4D\	noſ	nos	.	.	2.ryy	4a\	noſ	nos	.	.	8ff#\L	noſ	nos	.	.	2.ryy	4d\	.	4f#\	.	4a/	.	4ff#\	.	4ff#\	.	4fff#\	.
.	.	.	8f#/J	.	8dd\J	.	.	.	.	.	.	.	.	.	.	.	.	8dd\J	.	.	.	.	.	.	.	.	.	.	.	.	.	.	.	.	.
4G\	6	.	4g/	.	4ee\	.	4G\	ho-	ho-	.	.	.	4g\	ho-	ho-	.	.	4ee\	ho-	ho-	.	.	.	4A/	.	4e\	.	4g/	.	4ee\	.	4gg\	.	4eee\	.
4A\	7	.	8g/L	.	8ee\L	.	4A\	-mi-	-mi-	.	.	.	4e\	-mi-	-mi-	.	.	8ee\L	-mi-	-mi-	.	.	.	4A/	.	4e\	.	4g/	.	4ee\	.	4ee\	.	8eee\L	.
.	.	.	8e/J	.	8cc#\J	.	.	.	.	.	.	.	.	.	.	.	.	8cc#\J	.	.	.	.	.	.	.	.	.	.	.	.	.	.	.	8ccc#\J	.
*	*	*	*	*	*custos:dd	*	*	*	*	*	*	*	*	*	*	*	*	*	*	*	*	*	*	*	*	*	*	*	*	*	*	*	*	*	*
!	!	!	!	!	!LO:PB:g=original	!	!	!	!	!	!	!	!	!	!	!	!	!	!	!	!	!	!	!	!	!	!	!	!	!	!	!	!	!	!
=70	=70	=70	=70	=70	=70	=70	=70	=70	=70	=70	=70	=70	=70	=70	=70	=70	=70	=70	=70	=70	=70	=70	=70	=70	=70	=70	=70	=70	=70	=70	=70	=70	=70	=70	=70
4D/	.	.	2.f#/	.	2.dd\	.	2D\	-neſ	-nes,	.	.	2.ryy	2.f#\	-nes	-nes,	.	.	2dd\	-nes	-nes,	.	.	2.ryy	2F#/	.	2d\	.	2f#/	.	2dd\	.	2.ff#\	.	2.ddd\	.
8AA/L	.	.	.	.	.	.	.	.	.	.	.	.	.	.	.	.	.	.	.	.	.	.	.	.	.	.	.	.	.	.	.	.	.	.	.
8FF#/J	.	.	.	.	.	.	.	.	.	.	.	.	.	.	.	.	.	.	.	.	.	.	.	.	.	.	.	.	.	.	.	.	.	.	.
4DD/	.	.	.	.	.	.	4r	.	.	.	.	.	.	.	.	.	.	4r	.	.	.	.	.	4r	.	4r	.	4r	.	4r	.	.	.	.	.
!	!	!	!LO:LB:g=original	!	!	!	!	!	!	!	!	!	!	!	!	!	!	!	!	!	!	!	!	!	!	!	!	!	!	!	!	!	!	!	!
=71	=71	=71	=71	=71	=71	=71	=71	=71	=71	=71	=71	=71	=71	=71	=71	=71	=71	=71	=71	=71	=71	=71	=71	=71	=71	=71	=71	=71	=71	=71	=71	=71	=71	=71	=71
4D\	.	.	4a 4f#/	.	8dd\L	.	4D/	et	et	.	.	2.ryy	4f#\	et	et	.	.	4dd\	et	et	.	.	2.ryy	2F#/	.	2d\	.	4f#/	.	4dd\	.	2ff#\	.	4ddd\	.
.	.	.	.	.	8cc#\	.	.	.	.	.	.	.	.	.	.	.	.	.	.	.	.	.	.	.	.	.	.	.	.	.	.	.	.	.	.
4D\	.	.	4a 4f#/	.	8dd\	.	4D/	p(ro)-	p(ro)-	.	.	.	4f#\	p(ro)-	p(ro)-	.	.	4dd\	p(ro)-	p(ro)-	.	.	.	.	.	.	.	4f#/	.	4dd\	.	.	.	4ddd\	.
.	.	.	.	.	8ff#\	.	.	.	.	.	.	.	.	.	.	.	.	.	.	.	.	.	.	.	.	.	.	.	.	.	.	.	.	.	.
4C#\	6	.	4a 4e/	.	8ee\	.	4C#/	-pter	-pter	.	.	.	4a\	-pter	-pter	.	.	4ee\	-pter	-pter	.	.	.	4A/	.	4e\	.	4a/	.	4ee\	.	4ee\	.	4eee\	.
.	.	.	.	.	8gg\J	.	.	.	.	.	.	.	.	.	.	.	.	.	.	.	.	.	.	.	.	.	.	.	.	.	.	.	.	.	.
*	*	*	*	*	*	*	*	*	*	*	*	*	*	*	*	*	*	*	*	*	*	*	*	*	*	*custos:ee	*	*	*	*	*	*	*	*	*
!	!	!	!	!	!	!	!	!	!	!	!	!	!	!	!	!	!	!	!	!	!	!	!	!	!	!LO:LB:g=original	!	!	!	!	!	!	!	!	!
=72	=72	=72	=72	=72	=72	=72	=72	=72	=72	=72	=72	=72	=72	=72	=72	=72	=72	=72	=72	=72	=72	=72	=72	=72	=72	=72	=72	=72	=72	=72	=72	=72	=72	=72	=72
4D\	.	.	4a 4f#/	.	8ff#\L	.	2D\	noſ-	nos-	.	.	2.ryy	2a\	noſ-	nos-	.	.	2ff#\	noſ-	nos-	.	.	2.ryy	2d\	.	2f#\	.	2a/	.	2ff#\	.	2ff#\	.	2fff#\	.
.	.	.	.	.	8dd\	.	.	.	.	.	.	.	.	.	.	.	.	.	.	.	.	.	.	.	.	.	.	.	.	.	.	.	.	.	.
4d\	.	.	4a 4f#/	.	8ff#\	.	.	.	.	.	.	.	.	.	.	.	.	.	.	.	.	.	.	.	.	.	.	.	.	.	.	.	.	.	.
.	.	.	.	.	8dd\	.	.	.	.	.	.	.	.	.	.	.	.	.	.	.	.	.	.	.	.	.	.	.	.	.	.	.	.	.	.
4c#\	6	.	4a 4e/	.	8ee\	.	4C#/	-tram	-tram	.	.	.	4a\	-tram	-tram	.	.	4ee\	-tram	-tram	.	.	.	4A/	.	4e\	.	4a/	.	4ee\	.	4ee\	.	4eee\	.
.	.	.	.	.	8aa\J	.	.	.	.	.	.	.	.	.	.	.	.	.	.	.	.	.	.	.	.	.	.	.	.	.	.	.	.	.	.
!LO:LB:g=original	!	!	!	!	!	!	!	!	!	!	!	!	!	!	!	!	!	!	!	!	!	!	!	!LO:LB:g=original	!	!	!	!	!	!	!	!	!	!	!
=73	=73	=73	=73	=73	=73	=73	=73	=73	=73	=73	=73	=73	=73	=73	=73	=73	=73	=73	=73	=73	=73	=73	=73	=73	=73	=73	=73	=73	=73	=73	=73	=73	=73	=73	=73
4d\	.	.	4a 4f#/	.	8ff#\L	.	4D\	Sa-	sa-	.	.	2.ryy	4a\	Sa-	sa-	.	.	8ff#\L	Sa-	sa-	.	.	2.ryy	4d\	.	4f#\	.	4a/	.	4ff#\	.	4ff#\	.	4fff#\	.
.	.	.	.	.	8dd\J	.	.	.	.	.	.	.	.	.	.	.	.	8dd\J	.	.	.	.	.	.	.	.	.	.	.	.	.	.	.	.	.
!	!	!	!	!	!	!	!	!	!	!	!	!	!	!	!	!	!	!LO:SIC:s=([4ee\	!	!	!	!	!	!	!	!	!	!	!	!	!	!	!	!	!
4G\	6	.	4g/	.	4ee\	.	(4G\	-lu-	-lu-	.	.	.	(4g\	-lu-	-lu-	.	.	4ee\	-lu-	-lu-	.	.	.	4r	.	4e\	.	4g/	.	4ee\	.	4gg\	.	4eee\	.
!	!	!	!	!	!	!	!	!	!	!	!	!	!	!	!	!	!	!LO:SIC:s=8ee\L]	!	!	!	!	!	!	!	!	!	!	!	!	!	!	!	!	!
4A\	.	.	8g/L	.	8ee\L	.	4A\)	.	.	.	.	.	4e\)	.	.	.	.	8ee\L	.	.	.	.	.	4A/	.	4e\	.	4g/	.	4ee\	.	4ee\	.	4eee\	.
!	!	!	!	!	!	!	!	!	!	!	!	!	!	!	!	!	!	!LO:SIC:s=8cc#\J)	!	!	!	!	!	!	!	!	!	!	!	!	!	!	!	!	!
.	.	.	8e/J	.	8cc#\J	.	.	.	.	.	.	.	.	.	.	.	.	8cc#\J	.	.	.	.	.	.	.	.	.	.	.	.	.	.	.	.	.
=74	=74	=74	=74	=74	=74	=74	=74	=74	=74	=74	=74	=74	=74	=74	=74	=74	=74	=74	=74	=74	=74	=74	=74	=74	=74	=74	=74	=74	=74	=74	=74	=74	=74	=74	=74
!LO:TX:a:t=Pleno:mod=pleno	!	!	!	!	!	!	!	!	!	!	!	!	!	!	!	!	!	!	!	!	!	!	!	!	!	!	!	!	!	!	!	!	!	!	!
4D 4DD/	.	.	4f#/	.	2dd\	.	2D\	-tem	-tem	.	.	2.ryy	2f#\	-tem	-tem	.	.	2dd\	-tem	-tem	.	.	2.ryy	2F#/	.	2d\	.	2f#/	.	2dd\	.	2ff#\	.	2ddd\	.
4D 4DD/	.	.	4f#/	.	.	.	.	.	.	.	.	.	.	.	.	.	.	.	.	.	.	.	.	.	.	.	.	.	.	.	.	.	.	.	.
4D 4DD/	.	.	4a/	.	4aa\	.	4D\	deſ-	des-	.	.	.	4f#\	deſ-	des-	.	.	4dd\	deſ-	des-	.	.	.	4r	.	4r	.	4ff#\	.	4aa\	.	4r	.	4r	.
!	!	!	!	!	!	!	!LO:LB:g=original	!	!	!	!	!	!	!	!	!	!	!	!	!	!	!	!	!	!	!	!	!	!	!	!	!LO:LB:g=original	!	!	!
=75	=75	=75	=75	=75	=75	=75	=75	=75	=75	=75	=75	=75	=75	=75	=75	=75	=75	=75	=75	=75	=75	=75	=75	=75	=75	=75	=75	=75	=75	=75	=75	=75	=75	=75	=75
!LO:TX:b:t=_:mod=	!	!	!	!	!	!	!	!	!	!	!	!	!	!	!	!	!	!	!	!	!	!	!	!	!	!	!	!	!	!	!	!	!	!	!
!LO:SIC:s=2.D 2.DD/	!	!	!	!	!	!	!LO:SIC:s=[2.D\	!	!	!	!	!	!LO:SIC:s=(2f#\	!	!	!	!	!	!	!	!	!	!	!	!	!	!	!	!	!	!	!	!	!	!
2.D 2.DDyy/	.	.	4d/	.	4dd\	.	2.D\	-cen-	-cen-	.	.	2.ryy	2f#\	-cen-	-cen-	.	.	2.dd\	cen-	cen-	.	.	2.ryy	2f#\	.	2.a\	.	2ff#\	.	2.aa\	.	2ff#\	.	4ddd\	.
.	.	.	8e/L	.	8ee\L	.	.	.	.	.	.	.	.	.	.	.	.	.	.	.	.	.	.	.	.	.	.	.	.	.	.	.	.	8eee\L	.
.	.	.	8f#/J	.	8ff#\J	.	.	.	.	.	.	.	.	.	.	.	.	.	.	.	.	.	.	.	.	.	.	.	.	.	.	.	.	8fff#\	.
!	!	!	!	!	!	!	!	!	!	!	!	!	!LO:SIC:s=4e\)	!	!	!	!	!	!	!	!	!	!	!	!	!	!	!	!	!	!	!	!	!	!
.	.	.	8c#/L	.	8cc#\L	.	.	.	.	.	.	.	4e\	.	.	.	.	.	.	.	.	.	.	4e\	.	.	.	4ee\	.	.	.	4ee\	.	8ccc#\	.
.	.	.	8A/J	.	8a\J	.	.	.	.	.	.	.	.	.	.	.	.	.	.	.	.	.	.	.	.	.	.	.	.	.	.	.	.	8aa\J	.
!	!	!	!	!	!	!	!	!	!	!	!	!	!	!	!	!	!	!	!	!	!	!	!	!	!	!	!	!LO:LB:g=original	!	!	!	!	!	!	!
=76	=76	=76	=76	=76	=76	=76	=76	=76	=76	=76	=76	=76	=76	=76	=76	=76	=76	=76	=76	=76	=76	=76	=76	=76	=76	=76	=76	=76	=76	=76	=76	=76	=76	=76	=76
!LO:TX:b:t=_:mod=	!	!	!	!	!	!	!	!	!	!	!	!	!	!	!	!	!	!	!	!	!	!	!	!	!	!	!	!	!	!	!	!	!	!	!
!LO:SIC:s=2.D 2.DD/	!	!	!	!	!	!	!LO:SIC:s=2.D\]	!	!	!	!	!	!	!	!	!	!	!	!	!	!	!	!	!	!	!	!	!	!	!	!	!	!	!	!
2.D 2.DDyy/	.	.	4d/	.	4dd\	.	2.D\	.	.	.	.	2.ryy	2f#\	-dit	-dit	.	.	2.dd\	-dit	-dit	.	.	2.ryy	2f#\	.	2.a\	.	2ff#\	.	2.aa\	.	2ff#\	.	4ddd\	.
.	.	.	8e/L	.	8ee\L	.	.	.	.	.	.	.	.	.	.	.	.	.	.	.	.	.	.	.	.	.	.	.	.	.	.	.	.	8eee\L	.
.	.	.	8f#/J	.	8ff#\	.	.	.	.	.	.	.	.	.	.	.	.	.	.	.	.	.	.	.	.	.	.	.	.	.	.	.	.	8fff#\	.
.	.	.	8c#/L	.	8cc#\	.	.	.	.	.	.	.	4e\	de	de	.	.	.	.	.	.	.	.	4e\	.	.	.	4ee\	.	.	.	4ee\	.	8ccc#\	.
.	.	.	8A/J	.	8a\J	.	.	.	.	.	.	.	.	.	.	.	.	.	.	.	.	.	.	.	.	.	.	.	.	.	.	.	.	8aa\J	.
!	!	!	!	!	!	!	!	!	!	!	!	!	!LO:LB:g=original	!	!	!	!	!	!	!	!	!	!	!	!	!	!	!	!	!	!	!	!	!	!
=77	=77	=77	=77	=77	=77	=77	=77	=77	=77	=77	=77	=77	=77	=77	=77	=77	=77	=77	=77	=77	=77	=77	=77	=77	=77	=77	=77	=77	=77	=77	=77	=77	=77	=77	=77
!LO:TX:b:t=_:mod=	!	!	!	!	!	!	!	!	!	!	!	!	!	!	!	!	!	!	!	!	!	!	!	!	!	!	!	!	!	!	!	!	!	!	!
!LO:SIC:s=2.D 2.DD/	!	!	!	!	!	!	!	!	!	!	!	!	!LO:SIC:s=(2f#\	!	!	!	!	!	!	!	!	!	!	!	!	!	!	!	!	!	!	!	!	!	!
2.D 2.DDyy/	.	.	4a/	.	4aa\	.	2D\	-dit	-dit	.	.	2.ryy	2f#\	Cae-	cae-	.	.	2.dd\	de	de	.	.	2.ryy	2f#\	.	2.a\	.	2ff#\	.	2.aa\	.	2ff#\	.	4aa\	.
.	.	.	8f#/L	.	8ff#\L	.	.	.	.	.	.	.	.	.	.	.	.	.	.	.	.	.	.	.	.	.	.	.	.	.	.	.	.	8fff#\L	.
.	.	.	8d/	.	8dd\	.	.	.	.	.	.	.	.	.	.	.	.	.	.	.	.	.	.	.	.	.	.	.	.	.	.	.	.	8ddd\	.
.	.	.	8c#/	.	8cc#\	.	4D\	de	de	.	.	.	4e\	.	.	.	.	.	.	.	.	.	.	4e\	.	.	.	4ee\	.	.	.	4ee\	.	8ccc#\	.
.	.	.	8A/J	.	8a\J	.	.	.	.	.	.	.	.	.	.	.	.	.	.	.	.	.	.	.	.	.	.	.	.	.	.	.	.	8aa\J	.
=78	=78	=78	=78	=78	=78	=78	=78	=78	=78	=78	=78	=78	=78	=78	=78	=78	=78	=78	=78	=78	=78	=78	=78	=78	=78	=78	=78	=78	=78	=78	=78	=78	=78	=78	=78
!LO:TX:b:t=_:mod=	!	!	!	!	!	!	!	!	!	!	!	!	!	!	!	!	!	!	!	!	!	!	!	!	!	!	!	!	!	!	!	!	!	!	!
!LO:SIC:s=2.D 2.DD/	!	!	!	!	!	!	!	!	!	!	!	!	!	!	!	!	!	!	!	!	!	!	!	!	!	!	!	!	!	!	!	!	!	!	!
2.D 2.DDyy/	.	.	4d/	.	4dd\	.	2.D\	Cae-	cae-	.	.	2.ryy	2f#\	.	.	.	.	2.dd\	Cae-	cae-	.	.	2.ryy	2f#\	.	2.a\	.	2ff#\	.	2.aa\	.	2ff#\	.	4ddd\	.
.	.	.	8e/L	.	8ee\L	.	.	.	.	.	.	.	.	.	.	.	.	.	.	.	.	.	.	.	.	.	.	.	.	.	.	.	.	8eee\L	.
.	.	.	8f#/	.	8ff#\	.	.	.	.	.	.	.	.	.	.	.	.	.	.	.	.	.	.	.	.	.	.	.	.	.	.	.	.	8fff#\	.
!	!	!	!	!	!	!	!	!	!	!	!	!	!LO:SIC:s=4e\)	!	!	!	!	!	!	!	!	!	!	!	!	!	!	!	!	!	!	!	!	!	!
.	.	.	8c#/	.	8cc#\	.	.	.	.	.	.	.	4e\	.	.	.	.	.	.	.	.	.	.	4e\	.	.	.	4ee\	.	.	.	4ee\	.	8ccc#\	.
.	.	.	8A/J	.	8a\J	.	.	.	.	.	.	.	.	.	.	.	.	.	.	.	.	.	.	.	.	.	.	.	.	.	.	.	.	8aa\J	.
=79	=79	=79	=79	=79	=79	=79	=79	=79	=79	=79	=79	=79	=79	=79	=79	=79	=79	=79	=79	=79	=79	=79	=79	=79	=79	=79	=79	=79	=79	=79	=79	=79	=79	=79	=79
4D\	.	.	4d/	.	4dd\	.	4D\	-liſ	-lis.	.	.	2.ryy	4f#\	-liſ	-lis.	.	.	4dd\	-liſ	-lis.	.	.	2.ryy	4f#\	.	4a\	.	4ff#\	.	4aa\	.	4ff#\	.	4ddd\	.
8F#\L	.	.	4ff# 4a\	.	4ddd 4dd\	.	4r	.	.	.	.	.	4r	.	.	.	.	4r	.	.	.	.	.	4d\	.	4f#\	.	4dd\	.	4ff#\	.	4ff#\	.	4ddd\	.
8D\	.	.	.	.	.	.	.	.	.	.	.	.	.	.	.	.	.	.	.	.	.	.	.	.	.	.	.	.	.	.	.	.	.	.	.
8A\	.	.	4ff# 4a\	.	4ddd 4dd\	.	4r	.	.	.	.	.	4r	.	.	.	.	4r	.	.	.	.	.	4d\	.	4f#\	.	4dd\	.	4ff#\	.	4ff#\	.	4ddd\	.
8F#\J	.	.	.	.	.	.	.	.	.	.	.	.	.	.	.	.	.	.	.	.	.	.	.	.	.	.	.	.	.	.	.	.	.	.	.
=80	=80	=80	=80	=80	=80	=80	=80	=80	=80	=80	=80	=80	=80	=80	=80	=80	=80	=80	=80	=80	=80	=80	=80	=80	=80	=80	=80	=80	=80	=80	=80	=80	=80	=80	=80
!	!	!	!	!	!	!	!LO:TX:a:t=1:mod=	!	!	!	!	!	!	!	!	!	!	!	!	!	!	!	!	!	!	!	!	!	!	!	!	!	!	!	!
4D 4DD/	.	.	4ff# 4a\	.	4ddd 4dd\	.	2.r	.	.	.	.	2.ryy	2.r	.	.	.	.	2.r	.	.	.	.	2.ryy	4d\	.	4f#\	.	4dd\	.	4ff#\	.	4ff#\	.	4ddd\	.
*	*	*	*	*	*	*	*	*	*	*	*	*	*	*	*	*	*	*	*	*	*	*	*	*	*	*	*	*	*	*	*	*	*	*X8va	*
4r	.	.	4r	.	4r	.	.	.	.	.	.	.	.	.	.	.	.	.	.	.	.	.	.	4r	.	4r	.	4r	.	4r	.	4r	.	4r	.
4r	.	.	4r	.	4r	.	.	.	.	.	.	.	.	.	.	.	.	.	.	.	.	.	.	4r	.	4r	.	4r	.	4r	.	4r	.	4r	.
==	==	==	==	==	==	==	==	==	==	==	==	==	==	==	==	==	==	==	==	==	==	==	==	==	==	==	==	==	==	==	==	==	==	==	==
*-	*-	*-	*-	*-	*-	*-	*-	*-	*-	*-	*-	*-	*-	*-	*-	*-	*-	*-	*-	*-	*-	*-	*-	*-	*-	*-	*-	*-	*-	*-	*-	*-	*-	*-	*-
!!!system-decoration: [(g1)][(g2)][(g3)][(g4)]g5
!!!RDF**kern: | = vertical stroke
!!!ENC: Andrzej Kubiczek
!!!END: 2020-10-03
!!!ENC: Jan Barakat
!!!END: 2022-02-04
!!!ENC-modern: Katarzyna Serwa
!!!END-modern: 2022-12-07
!!!YEC: Copyright 2022 Narodowy Instytut Fryderyka Chopina (https://polishscores.org)
!!!YEM: License CC-BY-4.0 (https://creativecommons.org/licenses/by/4.0)
!!!filter-modern: sic -sq | shed -e "s/LO:DY:(a|b|rj)/LO:dy:$1/L" | autostem -r | tie -s | shed -k -e "s/([\(\)\[\]])[><]/$1/g" | shed -e "s/^custos:/Xcustos:/I" | shed -k -e "s/:TUP:/:tup:/L" | shed -e "s/N:vis=/N:VIS=/L" | shed -e "s/TX(.*):t=P:/tx$1:t=P:/LG" | shed -e "s/^(\d+[\/\\]right)/$1yy/I; s/^(\d+[\/\\]left)/$1yy/I" | modori -m
